%
(1001)
(Miguel Villa Floran)
(T1  D=0.125 CR=0 - ZMIN=-0.1 - flat end mill)
(T2  D=0.125 CR=0 TAPER=30deg - ZMIN=-0.0656 - chamfer mill)
G90
G17
G20
G28 G91 Z0
G90

(Adaptive1)
T1 M6
S10000 M3
G54
G0 X-0.0161 Y-0.1482
Z0.5906
Z0.1969
Z-0.075
G1 Z-0.0875 F60
Y-0.1479 Z-0.0903
X-0.0158 Y-0.147 Z-0.0929
X-0.0155 Y-0.1456 Z-0.0953
X-0.015 Y-0.1437 Z-0.0973
X-0.0144 Y-0.1414 Z-0.0988
X-0.0137 Y-0.1388 Z-0.0997
X-0.013 Y-0.1361 Z-0.1
G3 X-0.0032 Y-0.0681 I-0.3092 J0.0792
G1 X-0.0033 Y-0.0648
X-0.0203 Y-0.0413
X-0.0307 Y-0.0142
X-0.0361 Y0.0144
X-0.0387 Y0.0433
X-0.0399 Y0.0723
X-0.0404 Y0.1014
X-0.0406 Y0.1304
X-0.0407 Y0.1595
Y0.2466
X-0.0408 Y1.9023
Y1.9604
X-0.0383 Y1.9747
X-0.0319 Y1.9878
X-0.0228 Y1.9991
X-0.0007 Y2.018
X0.026 Y2.0295
X0.0544 Y2.0355
X0.0833 Y2.0385
X0.1123 Y2.0398
X0.1413 Y2.0403
X0.1704 Y2.0406
X0.1994 Y2.0407
X0.2575
X1.8552 Y2.0408
X2.959
X2.9734 Y2.0387
X2.9866 Y2.0327
X2.9981 Y2.0238
X3.0174 Y2.0021
X3.0291 Y1.9755
X3.0353 Y1.9472
X3.0384 Y1.9183
X3.0397 Y1.8893
X3.0403 Y1.8602
X3.0406 Y1.8312
X3.0407 Y1.8021
Y1.744
Y1.1921
X3.0408 Y0.0447
X3.04 Y0.0302
X3.0348 Y0.0167
X3.0266 Y0.0047
X3.0058 Y-0.0155
X2.9795 Y-0.0281
X2.9513 Y-0.0348
X2.9224 Y-0.0381
X2.8934 Y-0.0396
X2.8644 Y-0.0403
X2.8353 Y-0.0405
X2.8063 Y-0.0407
X2.7482
X2.2544
X0.2791 Y-0.0408
X0.0758
X0.0613 Y-0.0392
X0.0477 Y-0.0341
X0.0355 Y-0.0263
X0.0143 Y-0.0064
X0.0004 Y0.0191
X-0.0077 Y0.047
X-0.0119 Y0.0757
X-0.014 Y0.1047
X-0.0149 Y0.1337
X-0.0154 Y0.1628
X-0.0156 Y0.1918
X-0.0157 Y0.2209
Y0.308
X-0.0158 Y1.7023
Y1.9056
X-0.0156 Y1.9202
X-0.013 Y1.9344
X-0.0077 Y1.948
X0.0076 Y1.9727
X0.0303 Y1.9907
X0.057 Y2.0023
X0.0853 Y2.009
X0.1141 Y2.0125
X0.1431 Y2.0142
X0.1721 Y2.015
X0.2012 Y2.0154
X0.2302 Y2.0156
X0.2593 Y2.0157
X0.3464
X1.4017 Y2.0158
X1.4037 Y2.0159
X1.4242 Y2.0169
X1.5099 Y2.0191
X1.5165 Y2.019
X1.5297 Y2.0188
X1.5495 Y2.0182
X1.5824 Y2.0172
X1.6115 Y2.0178
X1.6405 Y2.0166
X1.6695 Y2.0161
X1.6986 Y2.0159
X1.7276 Y2.0158
X1.8148
X2.9186
X2.9329 Y2.0134
X2.9466 Y2.0084
X2.9591 Y2.0011
X2.9812 Y1.9822
X2.9964 Y1.9575
X3.0056 Y1.9299
X3.0107 Y1.9013
X3.0134 Y1.8724
X3.0146 Y1.8434
X3.0152 Y1.8144
X3.0155 Y1.7853
X3.0156 Y1.7563
X3.0157 Y1.6982
Y1.4077
X3.0158 Y0.0715
X3.0116 Y0.0576
X3.0049 Y0.0447
X2.9872 Y0.0216
X2.963 Y0.0055
X2.9358 Y-0.0045
X2.9073 Y-0.0101
X2.8784 Y-0.0131
X2.8494 Y-0.0145
X2.8203 Y-0.0152
X2.7913 Y-0.0155
X2.7622 Y-0.0156
X2.7041 Y-0.0157
X2.4137
X1.5799 Y-0.0158
X1.5783
X1.5363 Y-0.018
X1.5297 Y-0.0183
X1.5165 Y-0.0186
X1.5099 Y-0.0187
X1.4242 Y-0.018
X1.4176 Y-0.0176
X1.3885 Y-0.0174
X1.3595 Y-0.0164
X1.3305 Y-0.016
X1.3014 Y-0.0159
X1.2724 Y-0.0158
X1.1562
X0.1104
X0.0961 Y-0.0134
X0.0824 Y-0.0086
X0.057 Y0.0055
X0.0379 Y0.0274
X0.0252 Y0.0535
X0.0176 Y0.0816
X0.0134 Y0.1103
X0.0113 Y0.1393
X0.0102 Y0.1683
X0.0097 Y0.1974
X0.0095 Y0.2264
X0.0094 Y0.2555
X0.0093 Y0.3136
Y0.604
X0.0092 Y1.8821
X0.0129 Y1.9109
X0.0258 Y1.937
X0.0465 Y1.9574
X0.0719 Y1.9715
X0.0996 Y1.9803
X0.1282 Y1.9853
X0.1571 Y1.988
X0.1861 Y1.9894
X0.2151 Y1.9901
X0.2442 Y1.9904
X0.2732 Y1.9906
X0.3023 Y1.9907
X0.3894
X0.6509
X1.2478 Y1.9908
X1.2515 Y1.9909
X1.2551 Y1.9913
X1.2586 Y1.992
X1.3121 Y2.005
X1.3176 Y2.0062
X1.3319 Y2.0085
X1.3385 Y2.0095
X1.3582 Y2.0121
X1.378 Y2.0139
X1.3912 Y2.015
X1.3978 Y2.0155
X1.4037 Y2.0159
G3 X1.4126 Y2.0205 I-0.0008 J0.0124
G2 X1.4219 Y2.0251 I0.0097 J-0.0079
G1 X1.4318 Y2.0254
X1.5459 Y2.0288
X1.5484 Y2.0286
X1.5508 Y2.0279
X1.553 Y2.0268
G3 X1.5824 Y2.0172 I0.0335 J0.0526
G1 X1.5956 Y2.0168
X1.6154 Y2.0161
X1.622 Y2.0157
X1.6484 Y2.0135
X1.6615 Y2.0123
X1.6681 Y2.0114
X1.6813 Y2.0095
X1.6879 Y2.0085
X1.7019 Y2.0062
X1.7077 Y2.0051
X1.7275 Y2.0004
X1.7445 Y1.9972
X1.7607 Y1.995
X1.7872 Y1.9927
X1.8162 Y1.9915
X1.8452 Y1.9911
X1.8743 Y1.9909
X1.9033 Y1.9908
X2.0195
X2.891
X2.9192 Y1.9841
X2.9437 Y1.9685
X2.9621 Y1.946
X2.9745 Y1.9197
X2.982 Y1.8917
X2.9863 Y1.8629
X2.9885 Y1.834
X2.9897 Y1.805
X2.9902 Y1.7759
X2.9905 Y1.7469
X2.9906 Y1.7178
X2.9907 Y1.6597
Y1.224
X2.9908 Y0.1202
X2.988 Y0.0913
X2.976 Y0.0648
X2.9558 Y0.0439
X2.9307 Y0.0294
X2.9031 Y0.0202
X2.8746 Y0.0149
X2.8456 Y0.0121
X2.8166 Y0.0106
X2.7876 Y0.0099
X2.7585 Y0.0096
X2.7295 Y0.0094
X2.7005 Y0.0093
X2.6133
X2.1776
X1.7621 Y0.0092
X1.7583 Y0.0091
X1.7547 Y0.0086
X1.751 Y0.0079
X1.7275 Y0.002
X1.7077 Y-0.0023
X1.7011 Y-0.0035
X1.6847 Y-0.0062
X1.6681 Y-0.0085
X1.6615 Y-0.0094
X1.6418 Y-0.0115
X1.622 Y-0.0135
X1.6154 Y-0.0139
X1.5783 Y-0.0158
G3 X1.5693 Y-0.0203 I0.0006 J-0.0125
G2 X1.5603 Y-0.0248 I-0.0096 J0.008
G1 X1.5501 Y-0.0253
X1.4543 Y-0.0301
X1.4517 Y-0.03
X1.4491 Y-0.0292
X1.4467 Y-0.028
G3 X1.4176 Y-0.0176 I-0.0348 J-0.0516
G1 X1.4044 Y-0.0169
X1.3846 Y-0.0155
X1.378 Y-0.0151
X1.3648 Y-0.0135
X1.3582 Y-0.0127
X1.3385 Y-0.01
X1.3319 Y-0.0086
X1.3187 Y-0.0056
X1.3121 Y-0.0041
X1.2989 Y-0.0008
X1.2812 Y0.0026
X1.2656 Y0.0048
X1.2408 Y0.0071
X1.2117 Y0.0084
X1.1827 Y0.0089
X1.1536 Y0.0091
X1.1246 Y0.0092
X1.0375
X0.137
X0.1085 Y0.0152
X0.0837 Y0.0302
X0.0647 Y0.0522
X0.0518 Y0.0783
X0.0438 Y0.1062
X0.0393 Y0.1349
X0.0368 Y0.1638
X0.0355 Y0.1928
X0.0349 Y0.2219
X0.0346 Y0.2509
X0.0344 Y0.28
X0.0343 Y0.3381
Y0.6286
Y0.7738
X0.0342 Y1.8486
X0.0363 Y1.8775
X0.0471 Y1.9045
X0.0663 Y1.9263
X0.0907 Y1.9421
X0.1178 Y1.9523
X0.1462 Y1.9585
X0.1751 Y1.962
X0.2041 Y1.9638
X0.2331 Y1.9648
X0.2621 Y1.9653
X0.2912 Y1.9655
X0.3202 Y1.9656
X0.3783 Y1.9657
X0.8721
X1.1622 Y1.9658
X1.1676 Y1.9661
X1.173 Y1.967
X1.1782 Y1.9686
X1.1905 Y1.9732
X1.2066 Y1.9791
X1.2089 Y1.9798
X1.2264 Y1.9842
X1.2586 Y1.992
G3 X1.2601 Y2.0157 I-0.0034 J0.0121
G1 X1.2575 Y2.0167 Z-0.0997
X1.2551 Y2.0177 Z-0.0988
X1.2529 Y2.0186 Z-0.0973
X1.251 Y2.0194 Z-0.0953
X1.2497 Y2.02 Z-0.0929
X1.2488 Y2.0203 Z-0.0903
X1.2485 Y2.0204 Z-0.0875
G0 Z0.1969
X1.6917 Y2.0245
Z-0.075
G1 Z-0.0875 F60
X1.6919 Y2.0242 Z-0.0903
X1.6926 Y2.0236 Z-0.0929
X1.6936 Y2.0226 Z-0.0953
X1.6951 Y2.0212 Z-0.0973
X1.6968 Y2.0195 Z-0.0988
X1.6987 Y2.0177 Z-0.0997
X1.7006 Y2.0158 Z-0.1
G3 X1.7275 Y2.0004 I0.0435 J0.0446
G1 X1.767 Y1.9909
X1.7736 Y1.9892
X1.7868 Y1.9855
X1.7934 Y1.9836
X1.8066 Y1.9794
X1.8202 Y1.9757
X1.83 Y1.9736
X1.8433 Y1.9714
X1.8631 Y1.9691
X1.8921 Y1.9671
X1.9211 Y1.9663
X1.9502 Y1.966
X1.9792 Y1.9659
X2.0373 Y1.9658
X2.8507
X2.8796 Y1.9632
X2.9062 Y1.9517
X2.9276 Y1.932
X2.9429 Y1.9073
X2.9529 Y1.88
X2.9588 Y1.8516
X2.9622 Y1.8227
X2.9639 Y1.7937
X2.9648 Y1.7647
X2.9653 Y1.7357
X2.9655 Y1.7066
X2.9656 Y1.6776
X2.9657 Y1.6195
Y1.0966
X2.9658 Y0.1671
X2.9654 Y0.138
X2.96 Y0.1095
X2.9451 Y0.0846
X2.9232 Y0.0655
X2.8973 Y0.0524
X2.8694 Y0.0442
X2.8407 Y0.0395
X2.8118 Y0.0369
X2.7828 Y0.0356
X2.7537 Y0.0349
X2.7247 Y0.0346
X2.6956 Y0.0344
X2.6666 Y0.0343
X2.5795
X1.9985 Y0.0342
X1.8481
X1.8432 Y0.034
X1.8384 Y0.0332
X1.8337 Y0.0319
X1.7934 Y0.0186
X1.7868 Y0.0169
X1.767 Y0.0119
X1.751 Y0.0079
G0 Z0.1969
X1.3346 Y-0.0251
Z-0.075
G1 Z-0.0875 F60
X1.3343 Y-0.0249 Z-0.0903
X1.3337 Y-0.0243 Z-0.0929
X1.3326 Y-0.0232 Z-0.0953
X1.3312 Y-0.0218 Z-0.0973
X1.3295 Y-0.0202 Z-0.0988
X1.3276 Y-0.0183 Z-0.0997
X1.3256 Y-0.0164 Z-0.1
G3 X1.2989 Y-0.0009 I-0.0436 J-0.0444
G1 X1.233 Y0.0153
X1.2264 Y0.0169
X1.2066 Y0.0222
X1.2046 Y0.0228
X1.1943 Y0.0253
X1.1832 Y0.0274
X1.1674 Y0.0297
X1.1424 Y0.032
X1.1134 Y0.0333
X1.0844 Y0.0339
X1.0553 Y0.0341
X1.0263 Y0.0342
X0.9391
X0.1839
X0.1548 Y0.0353
X0.1271 Y0.0439
X0.1038 Y0.0613
X0.0866 Y0.0846
X0.075 Y0.1113
X0.0679 Y0.1394
X0.0638 Y0.1682
X0.0616 Y0.1972
X0.0605 Y0.2262
X0.0599 Y0.2552
X0.0596 Y0.2843
X0.0594 Y0.3133
X0.0593 Y0.3714
Y0.6329
Y0.9233
X0.0592 Y1.8238
X0.0617 Y1.8528
X0.0731 Y1.8795
X0.0925 Y1.9011
X0.117 Y1.9168
X0.1441 Y1.927
X0.1725 Y1.9332
X0.2014 Y1.9367
X0.2303 Y1.9386
X0.2594 Y1.9397
X0.2884 Y1.9402
X0.3175 Y1.9405
X0.3465 Y1.9406
X0.4046 Y1.9407
X0.6951
X1.0727 Y1.9408
X1.1018
X1.103
X1.1042 Y1.941
X1.1054 Y1.9414
X1.1407 Y1.9546
X1.1782 Y1.9686
G3 X1.1769 Y1.9923 I-0.0047 J0.0116
G1 X1.1742 Y1.993 Z-0.0997
X1.1716 Y1.9937 Z-0.0988
X1.1694 Y1.9943 Z-0.0973
X1.1675 Y1.9949 Z-0.0953
X1.166 Y1.9953 Z-0.0929
X1.1651 Y1.9955 Z-0.0903
X1.1648 Y1.9956 Z-0.0875
G0 Z0.1969
X1.7728 Y2.0061
Z-0.075
G1 Z-0.0875 F60
X1.773 Y2.0059 Z-0.0903
X1.7736 Y2.0052 Z-0.0929
X1.7746 Y2.0041 Z-0.0953
X1.7759 Y2.0026 Z-0.0973
X1.7774 Y2.0008 Z-0.0988
X1.7792 Y1.9988 Z-0.0997
X1.781 Y1.9968 Z-0.1
G3 X1.8066 Y1.9794 I0.0468 J0.0412
G1 X1.8396 Y1.9687
X1.8528 Y1.9644
X1.8593 Y1.9621
X1.8725 Y1.9568
X1.8804 Y1.954
X1.8872 Y1.952
X1.8959 Y1.9499
X1.9076 Y1.9477
X1.9237 Y1.9454
X1.9494 Y1.943
X1.9784 Y1.9417
X2.0074 Y1.9412
X2.0365 Y1.9409
X2.0655 Y1.9408
X2.1236
X2.8208
X2.8498 Y1.9388
X2.8768 Y1.9283
X2.8991 Y1.9096
X2.9153 Y1.8855
X2.926 Y1.8585
X2.9326 Y1.8302
X2.9364 Y1.8014
X2.9385 Y1.7725
X2.9396 Y1.7434
X2.9402 Y1.7144
X2.9405 Y1.6854
X2.9406 Y1.6563
X2.9407 Y1.5982
Y1.3368
Y0.9592
X2.9408 Y0.2039
X2.9407 Y0.1749
X2.9379 Y0.1459
X2.9262 Y0.1194
X2.9065 Y0.098
X2.8818 Y0.0827
X2.8546 Y0.0726
X2.8262 Y0.0666
X2.7973 Y0.0631
X2.7683 Y0.0612
X2.7393 Y0.0603
X2.7103 Y0.0598
X2.6812 Y0.0595
X2.6522 Y0.0594
X2.5941 Y0.0593
X2.2165
X1.9152 Y0.0592
X1.9092 Y0.0589
X1.9033 Y0.0577
X1.8976 Y0.0557
X1.8791 Y0.048
X1.8581 Y0.04
X1.8337 Y0.0319
G3 X1.8342 Y0.0083 I0.0043 J-0.0117
G1 X1.8368 Y0.0075 Z-0.0997
X1.8393 Y0.0066 Z-0.0988
X1.8416 Y0.0059 Z-0.0973
X1.8435 Y0.0053 Z-0.0953
X1.8449 Y0.0048 Z-0.0929
X1.8458 Y0.0046 Z-0.0903
X1.8461 Y0.0045 Z-0.0875
G0 Z0.1969
X1.239 Y-0.0032
Z-0.075
G1 Z-0.0875 F60
X1.2388 Y-0.003 Z-0.0903
X1.2382 Y-0.0023 Z-0.0929
X1.2372 Y-0.0012 Z-0.0953
X1.2358 Y0.0002 Z-0.0973
X1.2342 Y0.002 Z-0.0988
X1.2324 Y0.0039 Z-0.0997
X1.2305 Y0.006 Z-0.1
G3 X1.2046 Y0.0227 I-0.0457 J-0.0423
G1 X1.1868 Y0.0281
X1.167 Y0.0346
X1.1604 Y0.0371
X1.1472 Y0.0425
X1.1418 Y0.0447
X1.1359 Y0.0466
X1.1283 Y0.0487
X1.1188 Y0.0509
X1.1059 Y0.0531
X1.0872 Y0.0555
X1.0582 Y0.0577
X1.0292 Y0.0586
X1.0002 Y0.0589
X0.9711 Y0.0591
X0.9421 Y0.0592
X0.8259
X0.2159
X0.1868 Y0.0596
X0.1586 Y0.0665
X0.1343 Y0.0823
X0.1157 Y0.1046
X0.1028 Y0.1307
X0.0947 Y0.1586
X0.09 Y0.1873
X0.0873 Y0.2162
X0.0858 Y0.2452
X0.0851 Y0.2742
X0.0847 Y0.3033
X0.0845 Y0.3323
X0.0844 Y0.3614
X0.0843 Y0.4195
Y1.0295
X0.0842 Y1.7847
X0.0849 Y1.8137
X0.0919 Y1.8419
X0.1081 Y1.8661
X0.1305 Y1.8845
X0.1567 Y1.8972
X0.1846 Y1.9052
X0.2132 Y1.91
X0.2421 Y1.9127
X0.2712 Y1.9142
X0.3002 Y1.9149
X0.3292 Y1.9153
X0.3583 Y1.9155
X0.3873 Y1.9156
X0.4454 Y1.9157
X1.0264 Y1.9158
X1.0419
X1.0491 Y1.9163
X1.0561 Y1.918
X1.0628 Y1.9208
X1.0749 Y1.927
X1.0813 Y1.9303
X1.0945 Y1.9368
X1.1011 Y1.9398
X1.1054 Y1.9414
G3 X1.104 Y1.9651 I-0.0048 J0.0116
G1 X1.1013 Y1.9657 Z-0.0997
X1.0987 Y1.9665 Z-0.0988
X1.0965 Y1.9671 Z-0.0973
X1.0946 Y1.9676 Z-0.0953
X1.0931 Y1.968 Z-0.0929
X1.0922 Y1.9683 Z-0.0903
X1.0919 Y1.9684 Z-0.0875
G0 Z0.1969
X1.8408 Y1.986
Z-0.075
G1 Z-0.0875 F60
X1.841 Y1.9857 Z-0.0903
X1.8415 Y1.985 Z-0.0929
X1.8424 Y1.9838 Z-0.0953
X1.8436 Y1.9822 Z-0.0973
X1.8451 Y1.9804 Z-0.0988
X1.8466 Y1.9782 Z-0.0997
X1.8483 Y1.976 Z-0.1
G3 X1.8725 Y1.9568 I0.0497 J0.0377
G1 X1.9187 Y1.9379
X1.9253 Y1.9351
X1.9285 Y1.9336
X1.9347 Y1.9312
X1.9409 Y1.9291
X1.9481 Y1.927
X1.9576 Y1.9248
X1.97 Y1.9225
X1.9877 Y1.9201
X2.0161 Y1.9176
X2.0452 Y1.9166
X2.0742 Y1.9161
X2.1033 Y1.9159
X2.1323 Y1.9158
X2.2195
X2.7714
X2.8004 Y1.9157
X2.8293 Y1.9124
X2.8556 Y1.9002
X2.8768 Y1.8803
X2.8921 Y1.8556
X2.9021 Y1.8283
X2.9082 Y1.7999
X2.9117 Y1.7711
X2.9136 Y1.7421
X2.9146 Y1.7131
X2.9152 Y1.684
X2.9155 Y1.655
X2.9156 Y1.6259
X2.9157 Y1.5678
Y1.3355
Y0.8707
X2.9158 Y0.2316
X2.9157 Y0.2026
X2.9132 Y0.1737
X2.9019 Y0.1469
X2.8827 Y0.1251
X2.8584 Y0.1092
X2.8313 Y0.0988
X2.803 Y0.0923
X2.7741 Y0.0886
X2.7452 Y0.0865
X2.7161 Y0.0854
X2.6871 Y0.0849
X2.6581 Y0.0846
X2.629 Y0.0844
X2.5709 Y0.0843
X2.3385
X1.9722 Y0.0842
X1.965 Y0.0837
X1.958 Y0.082
X1.9514 Y0.0793
X1.9451 Y0.076
X1.9385 Y0.0729
X1.9319 Y0.07
X1.8976 Y0.0557
G3 X1.8999 Y0.0323 I0.0052 J-0.0113
G1 X1.9026 Y0.0315 Z-0.0997
X1.9051 Y0.0309 Z-0.0988
X1.9074 Y0.0304 Z-0.0973
X1.9094 Y0.0299 Z-0.0953
X1.9108 Y0.0296 Z-0.0929
X1.9117 Y0.0293 Z-0.0903
X1.912 Z-0.0875
G0 Z0.1969
X1.1776 Y0.0118
Z-0.075
G1 Z-0.0875 F60
X1.1774 Y0.012 Z-0.0903
X1.1769 Y0.0128 Z-0.0929
X1.176 Y0.014 Z-0.0953
X1.1749 Y0.0156 Z-0.0973
X1.1736 Y0.0176 Z-0.0988
X1.1721 Y0.0198 Z-0.0997
X1.1705 Y0.0221 Z-0.1
G3 X1.1473 Y0.0425 I-0.0514 J-0.0352
G1 X1.1407 Y0.0455
X1.1341 Y0.0492
X1.128 Y0.0532
X1.1275 Y0.0535
X1.1258 Y0.0543
X1.1242 Y0.0549
X1.1225 Y0.0552
X1.1209 Y0.0554
X1.1143 Y0.0564
X1.1077 Y0.0576
X1.1005 Y0.0598
X1.0945 Y0.0623
X1.0879 Y0.0653
X1.0798 Y0.0686
X1.0741 Y0.0706
X1.067 Y0.0728
X1.0583 Y0.0749
X1.0466 Y0.0772
X1.0305 Y0.0795
X1.005 Y0.0819
X0.976 Y0.0832
X0.947 Y0.0838
X0.9179 Y0.084
X0.8889 Y0.0842
X0.8308
X0.2498
X0.2208 Y0.0844
X0.1921 Y0.0888
X0.1664 Y0.1023
X0.1461 Y0.1231
X0.1316 Y0.1483
X0.1222 Y0.1757
X0.1164 Y0.2042
X0.1131 Y0.2331
X0.1113 Y0.2621
X0.1103 Y0.2911
X0.1098 Y0.3201
X0.1095 Y0.3492
X0.1094 Y0.3782
X0.1093 Y0.4363
Y0.6978
Y1.1335
X0.1092 Y1.7435
X0.1094 Y1.7725
X0.1122 Y1.8014
X0.1237 Y1.8281
X0.1431 Y1.8497
X0.1675 Y1.8655
X0.1946 Y1.876
X0.2229 Y1.8825
X0.2517 Y1.8862
X0.2807 Y1.8884
X0.3097 Y1.8895
X0.3387 Y1.8901
X0.3678 Y1.8904
X0.3968 Y1.8906
X0.4259 Y1.8907
X0.513
X0.9932 Y1.8908
X1.0004 Y1.8913
X1.0074 Y1.893
X1.0141 Y1.8958
X1.0628 Y1.9208
G3 X1.0587 Y1.944 I-0.0061 J0.0109
G1 X1.0559 Y1.9445 Z-0.0997
X1.0533 Y1.9449 Z-0.0988
X1.051 Y1.9453 Z-0.0973
X1.049 Y1.9456 Z-0.0953
X1.0476 Y1.9458 Z-0.0929
X1.0467 Y1.946 Z-0.0903
X1.0463 Z-0.0875
G0 Z0.1969
X1.898 Y1.9641
Z-0.075
G1 Z-0.0875 F60
X1.8982 Y1.9638 Z-0.0903
X1.8987 Y1.9631 Z-0.0929
X1.8996 Y1.9619 Z-0.0953
X1.9007 Y1.9602 Z-0.0973
X1.9021 Y1.9583 Z-0.0988
X1.9036 Y1.9561 Z-0.0997
X1.9052 Y1.9538 Z-0.1
G3 X1.9286 Y1.9336 I0.0511 J0.0356
G1 X1.9385 Y1.9291
X1.9451 Y1.9258
X1.9751 Y1.9107
X1.981 Y1.9081
X1.9865 Y1.906
X1.9931 Y1.9039
X2.0016 Y1.9015
X2.0119 Y1.8993
X2.026 Y1.8969
X2.0462 Y1.8944
X2.0752 Y1.8924
X2.1042 Y1.8915
X2.1333 Y1.8911
X2.1623 Y1.8909
X2.1914 Y1.8908
X2.2785
X2.7433
X2.7723 Y1.8907
X2.8012 Y1.8879
X2.8279 Y1.8764
X2.8496 Y1.8571
X2.8654 Y1.8327
X2.8759 Y1.8056
X2.8824 Y1.7773
X2.8862 Y1.7485
X2.8883 Y1.7195
X2.8895 Y1.6905
X2.8901 Y1.6615
X2.8904 Y1.6324
X2.8906 Y1.6034
X2.8907 Y1.5743
Y1.4872
Y0.761
Y0.2381
X2.8899 Y0.2091
X2.8817 Y0.1812
X2.8649 Y0.1576
X2.842 Y0.1397
X2.8157 Y0.1274
X2.7877 Y0.1196
X2.759 Y0.1149
X2.7301 Y0.1123
X2.7011 Y0.1109
X2.672 Y0.1101
X2.643 Y0.1097
X2.6139 Y0.1095
X2.5849 Y0.1094
X2.5268 Y0.1093
X2.0911 Y0.1092
X2.0212
X2.0139 Y0.1087
X2.0069 Y0.107
X2.0002 Y0.1042
X1.978 Y0.0928
X1.9514 Y0.0793
G3 X1.9554 Y0.0559 I0.006 J-0.011
G1 X1.9582 Y0.0555 Z-0.0997
X1.9608 Y0.0551 Z-0.0988
X1.9631 Y0.0547 Z-0.0973
X1.9651 Y0.0544 Z-0.0953
X1.9665 Y0.0542 Z-0.0929
X1.9675 Y0.054 Z-0.0903
X1.9678 Z-0.0875
G0 Z0.1969
X1.1181 Y0.0346
Z-0.075
G1 Z-0.0875 F60
X1.118 Y0.0348 Z-0.0903
X1.1174 Y0.0356 Z-0.0929
X1.1166 Y0.0368 Z-0.0953
X1.1155 Y0.0385 Z-0.0973
X1.1142 Y0.0404 Z-0.0988
X1.1127 Y0.0426 Z-0.0997
X1.1111 Y0.0449 Z-0.1
G3 X1.0879 Y0.0653 I-0.0515 J-0.0351
G1 X1.0813 Y0.0684
X1.0747 Y0.0716
X1.0583 Y0.0796
X1.0549 Y0.0812
X1.0418 Y0.0881
X1.0352 Y0.0911
X1.0297 Y0.0933
X1.0233 Y0.0955
X1.0153 Y0.0978
X1.0058 Y0.1001
X0.9927 Y0.1025
X0.9748 Y0.1049
X0.9459 Y0.1073
X0.9169 Y0.1084
X0.8878 Y0.1089
X0.8588 Y0.1091
X0.8297 Y0.1092
X0.7426
X0.2778
X0.2488 Y0.1093
X0.22 Y0.1131
X0.194 Y0.126
X0.1731 Y0.1462
X0.1581 Y0.1711
X0.1482 Y0.1984
X0.1421 Y0.2268
X0.1385 Y0.2556
X0.1366 Y0.2846
X0.1355 Y0.3136
X0.1349 Y0.3427
X0.1346 Y0.3717
X0.1344 Y0.4008
X0.1343 Y0.4298
Y0.517
Y1.2431
X0.1342 Y1.7079
X0.1343 Y1.737
X0.1353 Y1.766
X0.1438 Y1.7938
X0.1608 Y1.8173
X0.1837 Y1.8352
X0.21 Y1.8474
X0.238 Y1.8553
X0.2667 Y1.8599
X0.2956 Y1.8626
X0.3246 Y1.8641
X0.3536 Y1.8649
X0.3827 Y1.8653
X0.4117 Y1.8655
X0.4408 Y1.8656
X0.4989 Y1.8657
X0.8474
X0.9497 Y1.8658
X0.9585 Y1.8666
X0.967 Y1.8691
X0.9748 Y1.8733
X0.989 Y1.8826
X0.9956 Y1.8863
X1.0141 Y1.8958
G3 X1.01 Y1.919 I-0.0061 J0.0109
G1 X1.0072 Y1.9195 Z-0.0997
X1.0046 Y1.9199 Z-0.0988
X1.0023 Y1.9203 Z-0.0973
X1.0003 Y1.9206 Z-0.0953
X0.9989 Y1.9208 Z-0.0929
X0.998 Y1.921 Z-0.0903
X0.9977 Z-0.0875
G0 Z0.1969
X1.9457 Y1.9424
Z-0.075
G1 Z-0.0875 F60
X1.9459 Y1.9421 Z-0.0903
X1.9464 Y1.9413 Z-0.0929
X1.9472 Y1.9401 Z-0.0953
X1.9483 Y1.9384 Z-0.0973
X1.9495 Y1.9364 Z-0.0988
X1.951 Y1.9342 Z-0.0997
X1.9525 Y1.9318 Z-0.1
G3 X1.9751 Y1.9107 I0.0525 J0.0336
G1 X1.9846 Y1.9059
X1.9912 Y1.9025
X2.0069 Y1.894
X2.011 Y1.8917
X2.0146 Y1.8896
X2.0198 Y1.8868
X2.0252 Y1.8843
X2.0308 Y1.882
X2.0375 Y1.8797
X2.0452 Y1.8775
X2.0553 Y1.8751
X2.0683 Y1.8727
X2.0867 Y1.8702
X2.1157 Y1.8677
X2.1447 Y1.8667
X2.1738 Y1.8662
X2.2028 Y1.8659
X2.2318 Y1.8658
X2.2899
X2.7257
X2.7547 Y1.8654
X2.7833 Y1.8604
X2.8089 Y1.8466
X2.8291 Y1.8257
X2.8434 Y1.8005
X2.8528 Y1.773
X2.8585 Y1.7445
X2.8618 Y1.7156
X2.8636 Y1.6866
X2.8646 Y1.6576
X2.8652 Y1.6286
X2.8654 Y1.5995
X2.8656 Y1.5705
X2.8657 Y1.5124
Y1.309
Y0.67
Y0.2633
X2.8647 Y0.2343
X2.8562 Y0.2065
X2.8394 Y0.1828
X2.8165 Y0.1649
X2.7902 Y0.1526
X2.7623 Y0.1448
X2.7336 Y0.1401
X2.7047 Y0.1374
X2.6757 Y0.1359
X2.6466 Y0.1351
X2.6176 Y0.1347
X2.5885 Y0.1345
X2.5595 Y0.1344
X2.5014 Y0.1343
X2.1819
X2.0637 Y0.1342
X2.0555 Y0.1335
X2.0476 Y0.1312
X2.0401 Y0.1276
X2.0155 Y0.1126
X2.011 Y0.1099
X2.0037 Y0.106
X2.0002 Y0.1042
G3 X2.0043 Y0.081 I0.0061 J-0.0109
G1 X2.0071 Y0.0805 Z-0.0997
X2.0097 Y0.0801 Z-0.0988
X2.012 Y0.0797 Z-0.0973
X2.014 Y0.0794 Z-0.0953
X2.0154 Y0.0791 Z-0.0929
X2.0164 Y0.079 Z-0.0903
X2.0167 Z-0.0875
G0 Z0.1969
X1.0706 Y0.056
Z-0.075
G1 Z-0.0875 F60
X1.0704 Y0.0563 Z-0.0903
X1.07 Y0.0571 Z-0.0929
X1.0692 Y0.0584 Z-0.0953
X1.0681 Y0.0601 Z-0.0973
X1.0669 Y0.0621 Z-0.0988
X1.0655 Y0.0643 Z-0.0997
X1.064 Y0.0667 Z-0.1
G3 X1.0417 Y0.0881 I-0.053 J-0.0328
G1 X1.0328 Y0.0928
X1.0154 Y0.1022
X1.0094 Y0.106
X1.0088 Y0.1064
X1.0077 Y0.1073
X1.0068 Y0.108
X1.0019 Y0.1113
X0.9994 Y0.1126
X0.9969 Y0.1138
X0.9944 Y0.1148
X0.9918 Y0.1157
G3 X0.9828 Y0.0925 I-0.0032 J-0.0121
G1 X0.9931 Y0.0872
G3 X1.0068 Y0.108 I0.0058 J0.0111
G1 X1.0022 Y0.1115
X1.0006 Y0.1126
X0.9993 Y0.1133
X0.9981 Y0.1138
X0.9956 Y0.1145
X0.989 Y0.1166
X0.988 Y0.117
X0.9825 Y0.1191
X0.9756 Y0.1212
X0.9666 Y0.1236
X0.9551 Y0.126
X0.9398 Y0.1285
X0.9173 Y0.131
X0.8884 Y0.1328
X0.8593 Y0.1336
X0.8303 Y0.1339
X0.8012 Y0.1341
X0.7722 Y0.1342
X0.685
X0.3074
X0.2784 Y0.1343
X0.2495 Y0.1372
X0.2229 Y0.1489
X0.2011 Y0.1682
X0.1853 Y0.1925
X0.1746 Y0.2195
X0.168 Y0.2478
X0.1641 Y0.2766
X0.1619 Y0.3055
X0.1607 Y0.3346
X0.16 Y0.3636
X0.1596 Y0.3927
X0.1595 Y0.4217
X0.1594 Y0.4508
X0.1593 Y0.5088
Y1.0027
Y1.3512
Y1.6998
X0.1595 Y1.7289
X0.1645 Y1.7575
X0.1782 Y1.7831
X0.1991 Y1.8033
X0.2243 Y1.8178
X0.2517 Y1.8273
X0.2801 Y1.8332
X0.309 Y1.8366
X0.338 Y1.8385
X0.367 Y1.8396
X0.396 Y1.8401
X0.4251 Y1.8404
X0.4541 Y1.8406
X0.5122 Y1.8407
X0.6865
X0.9122 Y1.8408
X0.9212 Y1.8416
X0.9298 Y1.8443
X0.9377 Y1.8485
X0.9692 Y1.8696
X0.9748 Y1.8733
G3 X0.9683 Y1.896 I-0.0072 J0.0102
G1 X0.9655 Y1.8961 Z-0.0997
X0.9628 Y1.8962 Z-0.0988
X0.9605 Y1.8964 Z-0.0973
X0.9585 Y1.8965 Z-0.0953
X0.957 Z-0.0929
X0.9561 Y1.8966 Z-0.0903
X0.9558 Z-0.0875
G0 Z0.1969
X1.9878 Y1.9233
Z-0.075
G1 Z-0.0875 F60
X1.9879 Y1.9231 Z-0.0903
X1.9884 Y1.9223 Z-0.0929
X1.9891 Y1.9209 Z-0.0953
X1.99 Y1.9192 Z-0.0973
X1.9911 Y1.9171 Z-0.0988
X1.9924 Y1.9148 Z-0.0997
X1.9937 Y1.9123 Z-0.1
G3 X2.0146 Y1.8896 I0.0549 J0.0295
G1 X2.0544 Y1.8656
X2.0599 Y1.8626
X2.0653 Y1.8601
X2.0711 Y1.8577
X2.0779 Y1.8553
X2.0856 Y1.8531
X2.0956 Y1.8506
X2.1084 Y1.8482
X2.1263 Y1.8456
X2.1535 Y1.8431
X2.1825 Y1.8418
X2.2116 Y1.8413
X2.2406 Y1.841
X2.2697 Y1.8409
X2.3278 Y1.8408
X2.7054
X2.7344 Y1.84
X2.7627 Y1.8334
X2.7875 Y1.8183
X2.8067 Y1.7965
X2.8202 Y1.7708
X2.8289 Y1.743
X2.8341 Y1.7145
X2.8371 Y1.6856
X2.8388 Y1.6566
X2.8397 Y1.6275
X2.8402 Y1.5985
X2.8405 Y1.5694
X2.8406 Y1.5404
X2.8407 Y1.4823
Y1.279
Y0.5818
Y0.2913
X2.8399 Y0.2623
X2.8323 Y0.2343
X2.8161 Y0.2102
X2.7937 Y0.1917
X2.7676 Y0.1788
X2.7398 Y0.1706
X2.7112 Y0.1656
X2.6823 Y0.1627
X2.6533 Y0.1611
X2.6242 Y0.1602
X2.5952 Y0.1598
X2.5661 Y0.1595
X2.5371 Y0.1594
X2.479 Y0.1593
X2.2466
X2.1042 Y0.1592
X2.0949 Y0.1583
X2.0859 Y0.1554
X2.0777 Y0.1508
X2.0769 Y0.1502
X2.0697 Y0.1456
X2.0401 Y0.1276
G3 X2.0459 Y0.1046 I0.0069 J-0.0105
G1 X2.0487 Y0.1044 Z-0.0997
X2.0513 Y0.1042 Z-0.0988
X2.0537 Y0.104 Z-0.0973
X2.0557 Y0.1038 Z-0.0953
X2.0572 Y0.1037 Z-0.0929
X2.0581 Y0.1036 Z-0.0903
X2.0584 Z-0.0875
G0 Z0.1969
X1.0191 Y0.0871
Z-0.075
G1 Z-0.0875 F60
X1.0189 Y0.0874 Z-0.0903
X1.0184 Y0.0881 Z-0.0929
X1.0175 Y0.0893 Z-0.0953
X1.0164 Y0.0909 Z-0.0973
X1.015 Y0.0929 Z-0.0988
X1.0134 Y0.095 Z-0.0997
X1.0118 Y0.0973 Z-0.1
G3 X0.988 Y0.117 I-0.0504 J-0.0366
G1 X0.9824 Y0.1194
X0.9758 Y0.1228
X0.9692 Y0.1268
X0.961 Y0.1324
X0.9559 Y0.1355
X0.9507 Y0.1384
X0.9453 Y0.1408
X0.9397 Y0.143
X0.9326 Y0.1454
X0.9243 Y0.1477
X0.9139 Y0.1501
X0.8999 Y0.1526
X0.8803 Y0.1551
X0.8513 Y0.1574
X0.8223 Y0.1584
X0.7932 Y0.1588
X0.7642 Y0.1591
X0.7351 Y0.1592
X0.677
X0.3285
X0.2994 Y0.1594
X0.2707 Y0.1636
X0.2446 Y0.1764
X0.2237 Y0.1965
X0.2085 Y0.2213
X0.1985 Y0.2486
X0.1924 Y0.277
X0.1888 Y0.3058
X0.1867 Y0.3348
X0.1856 Y0.3638
X0.185 Y0.3928
X0.1846 Y0.4219
X0.1845 Y0.4509
X0.1844 Y0.48
X0.1843 Y0.5671
Y1.4095
Y1.6709
X0.1844 Y1.7
X0.1884 Y1.7288
X0.2012 Y1.7548
X0.2213 Y1.7758
X0.246 Y1.791
X0.2732 Y1.8011
X0.3016 Y1.8074
X0.3304 Y1.8111
X0.3594 Y1.8132
X0.3884 Y1.8144
X0.4174 Y1.815
X0.4465 Y1.8154
X0.4755 Y1.8155
X0.5046 Y1.8156
X0.5627 Y1.8157
X0.8749
X0.8839 Y1.8166
X0.8925 Y1.8193
X0.9004 Y1.8235
X0.9377 Y1.8485
G0 Z0.1969
X2.0276 Y1.8994
Z-0.075
G1 Z-0.0875 F60
X2.0277 Y1.8991 Z-0.0903
X2.0282 Y1.8983 Z-0.0929
X2.0289 Y1.897 Z-0.0953
X2.0298 Y1.8952 Z-0.0973
X2.0309 Y1.8932 Z-0.0988
X2.0322 Y1.8908 Z-0.0997
X2.0335 Y1.8884 Z-0.1
G3 X2.0544 Y1.8656 I0.0549 J0.0294
G1 X2.0571 Y1.8639
X2.072 Y1.8544
X2.0769 Y1.8511
X2.0871 Y1.8439
X2.0921 Y1.8407
X2.0973 Y1.8378
X2.1027 Y1.8354
X2.1089 Y1.8329
X2.116 Y1.8304
X2.1242 Y1.8281
X2.1351 Y1.8255
X2.1486 Y1.823
X2.1678 Y1.8204
X2.1968 Y1.8179
X2.2258 Y1.8168
X2.2548 Y1.8162
X2.2839 Y1.816
X2.3129 Y1.8159
X2.371 Y1.8158
X2.6615
X2.6905 Y1.8157
X2.7195 Y1.8138
X2.7469 Y1.804
X2.7698 Y1.7862
X2.7869 Y1.7627
X2.7985 Y1.7361
X2.8059 Y1.708
X2.8103 Y1.6792
X2.8128 Y1.6503
X2.8141 Y1.6213
X2.8149 Y1.5923
X2.8153 Y1.5632
X2.8155 Y1.5342
X2.8156 Y1.5051
X2.8157 Y1.447
Y1.1565
X2.8158 Y0.5175
Y0.3142
X2.8145 Y0.2851
X2.806 Y0.2573
X2.7893 Y0.2336
X2.7665 Y0.2156
X2.7403 Y0.2031
X2.7123 Y0.1952
X2.6837 Y0.1904
X2.6548 Y0.1876
X2.6257 Y0.1861
X2.5967 Y0.1852
X2.5677 Y0.1848
X2.5386 Y0.1845
X2.5096 Y0.1844
X2.4515 Y0.1843
X2.2191
X2.1392
X2.1297 Y0.1833
X2.1207 Y0.1804
X2.1125 Y0.1757
X2.0889 Y0.1588
X2.0777 Y0.1508
G3 X2.0851 Y0.1284 I0.0076 J-0.0099
G1 X2.0879 Y0.1283 Z-0.0997
X2.0905 Z-0.0988
X2.0929 Y0.1282 Z-0.0973
X2.0949 Z-0.0953
X2.0964 Z-0.0929
X2.0973 Z-0.0903
X2.0976 Z-0.0875
G0 Z0.1969
X0.9858 Y0.0971
Z-0.075
G1 Z-0.0875 F60
X0.9857 Y0.0974 Z-0.0903
X0.9853 Y0.0982 Z-0.0929
X0.9847 Y0.0996 Z-0.0953
X0.9839 Y0.1014 Z-0.0973
X0.9829 Y0.1035 Z-0.0988
X0.9817 Y0.1059 Z-0.0997
X0.9806 Y0.1084 Z-0.1
G3 X0.961 Y0.1324 I-0.0565 J-0.0262
G1 X0.9297 Y0.1538
X0.926 Y0.1563
X0.921 Y0.1595
X0.9158 Y0.1623
X0.9105 Y0.1648
X0.9046 Y0.1671
X0.897 Y0.1696
X0.8883 Y0.1721
X0.8778 Y0.1746
X0.8636 Y0.1772
X0.8444 Y0.1797
X0.8154 Y0.1822
X0.7864 Y0.1833
X0.7573 Y0.1838
X0.7283 Y0.184
X0.6992 Y0.1841
X0.6411 Y0.1842
X0.3507
X0.3216 Y0.1846
X0.293 Y0.1896
X0.2674 Y0.2033
X0.247 Y0.224
X0.2324 Y0.2491
X0.2229 Y0.2765
X0.217 Y0.305
X0.2136 Y0.3338
X0.2116 Y0.3628
X0.2105 Y0.3918
X0.2099 Y0.4209
X0.2096 Y0.4499
X0.2094 Y0.479
Y0.508
X0.2093 Y0.5952
X0.2092 Y1.4956
Y1.6409
X0.2093 Y1.6699
X0.2122 Y1.6988
X0.2236 Y1.7256
X0.2427 Y1.7475
X0.2668 Y1.7637
X0.2937 Y1.7746
X0.3219 Y1.7815
X0.3507 Y1.7856
X0.3796 Y1.7879
X0.4087 Y1.7892
X0.4377 Y1.7899
X0.4667 Y1.7903
X0.4958 Y1.7905
X0.5248 Y1.7906
X0.5829 Y1.7907
X0.8405
X0.8504 Y1.7918
X0.8598 Y1.795
X0.8683 Y1.8001
X0.8791 Y1.8082
X0.8835 Y1.8115
X0.8967 Y1.821
X0.9004 Y1.8235
G0 Z0.1969
X2.063 Y1.8796
Z-0.075
G1 Z-0.0875 F60
X2.0631 Y1.8793 Z-0.0903
X2.0635 Y1.8785 Z-0.0929
X2.0641 Y1.8771 Z-0.0953
X2.0649 Y1.8753 Z-0.0973
X2.0658 Y1.8731 Z-0.0988
X2.0669 Y1.8707 Z-0.0997
X2.068 Y1.8682 Z-0.1
G3 X2.0871 Y1.8438 I0.057 J0.0251
G1 X2.1187 Y1.8214
X2.12 Y1.8204
X2.1249 Y1.8172
X2.13 Y1.8142
X2.1353 Y1.8116
X2.1408 Y1.8093
X2.1479 Y1.8068
X2.1565 Y1.8041
X2.166 Y1.8017
X2.179 Y1.799
X2.1955 Y1.7965
X2.2207 Y1.7938
X2.2497 Y1.7922
X2.2787 Y1.7915
X2.3078 Y1.7911
X2.3368 Y1.7909
X2.3659 Y1.7908
X2.453
X2.6273
X2.6563 Y1.7907
X2.6854 Y1.79
X2.7136 Y1.7831
X2.738 Y1.7674
X2.7569 Y1.7453
X2.7702 Y1.7194
X2.7788 Y1.6917
X2.784 Y1.6631
X2.787 Y1.6342
X2.7887 Y1.6052
X2.7897 Y1.5762
X2.7902 Y1.5472
X2.7904 Y1.5181
X2.7906 Y1.4891
X2.7907 Y1.431
Y1.2567
X2.7908 Y0.4143
Y0.3562
X2.7905 Y0.3272
X2.7869 Y0.2983
X2.7749 Y0.2719
X2.7552 Y0.2505
X2.7307 Y0.2349
X2.7036 Y0.2245
X2.6753 Y0.2179
X2.6465 Y0.2141
X2.6175 Y0.2119
X2.5885 Y0.2107
X2.5595 Y0.21
X2.5304 Y0.2097
X2.5014 Y0.2095
X2.4723 Y0.2094
X2.4142 Y0.2093
X2.1819
X2.1723 Y0.2092
X2.1619 Y0.2079
X2.152 Y0.2042
X2.1433 Y0.1984
X2.1363 Y0.1929
X2.1165 Y0.1785
X2.1125 Y0.1757
G3 X2.12 Y0.1533 I0.0076 J-0.0099
G1 X2.1228 Y0.1532 Z-0.0997
X2.1254 Z-0.0988
X2.1278 Z-0.0973
X2.1297 Z-0.0953
X2.1312 Y0.1531 Z-0.0929
X2.1322 Z-0.0903
X2.1325 Z-0.0875
G0 Z0.1969
X0.9506 Y0.1209
Z-0.075
G1 Z-0.0875 F60
X0.9505 Y0.1212 Z-0.0903
X0.9501 Y0.122 Z-0.0929
X0.9495 Y0.1234 Z-0.0953
X0.9486 Y0.1252 Z-0.0973
X0.9477 Y0.1273 Z-0.0988
X0.9466 Y0.1297 Z-0.0997
X0.9454 Y0.1322 Z-0.1
G3 X0.926 Y0.1563 I-0.0567 J-0.0257
G1 X0.9226 Y0.1588
X0.9033 Y0.1733
X0.8967 Y0.1784
X0.8918 Y0.1817
X0.8868 Y0.1848
X0.8815 Y0.1874
X0.8761 Y0.1898
X0.8697 Y0.1923
X0.8613 Y0.195
X0.8519 Y0.1975
X0.8402 Y0.2001
X0.8246 Y0.2027
X0.8024 Y0.2054
X0.7734 Y0.2074
X0.7444 Y0.2084
X0.7154 Y0.2088
X0.6863 Y0.209
X0.6573 Y0.2091
X0.5992 Y0.2092
X0.3958
X0.3668 Y0.2093
X0.3378 Y0.2104
X0.3097 Y0.2181
X0.2856 Y0.2341
X0.267 Y0.2565
X0.2541 Y0.2825
X0.2458 Y0.3104
X0.2407 Y0.339
X0.2378 Y0.3679
X0.2362 Y0.3969
X0.2353 Y0.4259
X0.2348 Y0.455
X0.2346 Y0.484
X0.2344 Y0.513
X0.2343 Y0.5711
Y0.7454
X0.2342 Y1.5878
X0.2343 Y1.6459
X0.2375 Y1.6748
X0.2492 Y1.7013
X0.2685 Y1.7231
X0.2927 Y1.7391
X0.3197 Y1.7498
X0.348 Y1.7566
X0.3767 Y1.7606
X0.4057 Y1.7629
X0.4347 Y1.7642
X0.4638 Y1.7649
X0.4928 Y1.7653
X0.5218 Y1.7655
X0.5509 Y1.7656
X0.609 Y1.7657
X0.8091
X0.8195 Y1.7669
X0.8294 Y1.7705
X0.8382 Y1.7762
X0.8451 Y1.7819
X0.8571 Y1.7915
X0.8617 Y1.795
X0.8683 Y1.8001
G0 Z0.1969
X2.0966 Y1.8567
Z-0.075
G1 Z-0.0875 F60
X2.0967 Y1.8564 Z-0.0903
X2.0971 Y1.8556 Z-0.0929
X2.0977 Y1.8542 Z-0.0953
X2.0984 Y1.8524 Z-0.0973
X2.0993 Y1.8502 Z-0.0988
X2.1004 Y1.8477 Z-0.0997
X2.1014 Y1.8452 Z-0.1
G3 X2.12 Y1.8204 I0.0576 J0.0239
G1 X2.1297 Y1.8131
X2.1363 Y1.8082
X2.1429 Y1.8029
X2.1472 Y1.7993
X2.1519 Y1.7958
X2.1568 Y1.7925
X2.1619 Y1.7896
X2.1673 Y1.787
X2.1734 Y1.7845
X2.1808 Y1.7818
X2.1888 Y1.7794
X2.1996 Y1.7767
X2.2128 Y1.774
X2.2309 Y1.7713
X2.2571 Y1.7687
X2.2861 Y1.7672
X2.3151 Y1.7664
X2.3442 Y1.7661
X2.3732 Y1.7659
X2.4023 Y1.7658
X2.4894
X2.6347 Y1.7657
X2.6637 Y1.7646
X2.6916 Y1.7563
X2.7155 Y1.7398
X2.7337 Y1.7173
X2.7464 Y1.6911
X2.7545 Y1.6632
X2.7594 Y1.6346
X2.7622 Y1.6057
X2.7638 Y1.5767
X2.7647 Y1.5476
X2.7652 Y1.5186
X2.7655 Y1.4895
X2.7656 Y1.4605
X2.7657 Y1.4024
Y1.1991
X2.7658 Y0.3857
X2.7657 Y0.3567
X2.763 Y0.3278
X2.7521 Y0.3008
X2.7334 Y0.2786
X2.7095 Y0.2621
X2.6827 Y0.2509
X2.6545 Y0.2438
X2.6258 Y0.2396
X2.5968 Y0.2372
X2.5678 Y0.2359
X2.5388 Y0.2351
X2.5097 Y0.2347
X2.4807 Y0.2345
X2.4516 Y0.2344
X2.3935 Y0.2343
X2.2192
X2.201 Y0.2342
X2.2002 Y0.2341
X2.1905 Y0.2326
X2.1813 Y0.229
X2.1731 Y0.2235
X2.1433 Y0.1984
G3 X2.1524 Y0.1768 I0.0083 J-0.0092
G1 X2.1552 Y0.1769 Z-0.0997
X2.1579 Y0.177 Z-0.0988
X2.1602 Y0.1772 Z-0.0973
X2.1622 Y0.1773 Z-0.0953
X2.1637 Y0.1774 Z-0.0929
X2.1646 Y0.1775 Z-0.0903
X2.1649 Z-0.0875
G0 Z0.1969
X0.9196 Y0.1418
Z-0.075
G1 Z-0.0875 F60
X0.9195 Y0.1421 Z-0.0903
X0.9191 Y0.1429 Z-0.0929
X0.9186 Y0.1443 Z-0.0953
X0.9178 Y0.1462 Z-0.0973
X0.9169 Y0.1484 Z-0.0988
X0.916 Y0.1508 Z-0.0997
X0.9149 Y0.1534 Z-0.1
G3 X0.8967 Y0.1783 I-0.0578 J-0.0231
G1 X0.8886 Y0.1852
X0.8808 Y0.1918
X0.8703 Y0.2007
X0.8657 Y0.2043
X0.8607 Y0.2075
X0.8555 Y0.2103
X0.8502 Y0.2128
X0.8435 Y0.2156
X0.8366 Y0.218
X0.8276 Y0.2207
X0.816 Y0.2235
X0.8027 Y0.2261
X0.7839 Y0.2289
X0.7558 Y0.2316
X0.7268 Y0.2329
X0.6977 Y0.2336
X0.6687 Y0.2339
X0.6396 Y0.2341
X0.6106 Y0.2342
X0.5235
X0.4073
X0.3782 Y0.2345
X0.3494 Y0.2379
X0.3228 Y0.2497
X0.3013 Y0.2692
X0.2855 Y0.2936
X0.2748 Y0.3206
X0.2682 Y0.3489
X0.2642 Y0.3776
X0.262 Y0.4066
X0.2607 Y0.4356
X0.26 Y0.4647
X0.2597 Y0.4937
X0.2595 Y0.5228
X0.2594 Y0.5518
X0.2593 Y0.6099
Y0.9294
Y1.5975
X0.2596 Y1.6266
X0.2643 Y1.6552
X0.2776 Y1.6811
X0.298 Y1.7017
X0.323 Y1.7166
X0.3503 Y1.7265
X0.3787 Y1.7326
X0.4075 Y1.7362
X0.4365 Y1.7382
X0.4655 Y1.7394
X0.4945 Y1.74
X0.5236 Y1.7403
X0.5526 Y1.7405
X0.5817 Y1.7406
X0.6398 Y1.7407
X0.7803
X0.7863 Y1.741
X0.7952 Y1.7424
X0.8037 Y1.7457
X0.8112 Y1.7507
X0.8176 Y1.7571
X0.8242 Y1.7636
X0.8294 Y1.7687
X0.8374 Y1.7755
X0.8382 Y1.7762
G3 X0.8292 Y1.7979 I-0.0083 J0.0093
G1 X0.8264 Z-0.0997
X0.8238 Y1.7977 Z-0.0988
X0.8214 Y1.7976 Z-0.0973
X0.8195 Y1.7975 Z-0.0953
X0.818 Y1.7974 Z-0.0929
X0.8171 Z-0.0903
X0.8167 Y1.7973 Z-0.0875
G0 Z0.1969
X2.1258 Y1.8368
Z-0.075
G1 Z-0.0875 F60
X2.1259 Y1.8365 Z-0.0903
X2.1262 Y1.8356 Z-0.0929
X2.1267 Y1.8342 Z-0.0953
X2.1274 Y1.8324 Z-0.0973
X2.1281 Y1.8301 Z-0.0988
X2.129 Y1.8276 Z-0.0997
X2.13 Y1.825 Z-0.1
G3 X2.1472 Y1.7994 I0.0587 J0.0208
G1 X2.1758 Y1.7755
X2.1808 Y1.7717
X2.1857 Y1.7684
X2.1908 Y1.7655
X2.1961 Y1.7629
X2.2018 Y1.7605
X2.2092 Y1.7578
X2.2179 Y1.755
X2.2278 Y1.7525
X2.2414 Y1.7496
X2.2578 Y1.747
X2.2826 Y1.7442
X2.3116 Y1.7425
X2.3406 Y1.7416
X2.3696 Y1.7412
X2.3987 Y1.741
X2.4277 Y1.7409
X2.4858 Y1.7408
X2.602
X2.6311 Y1.7403
X2.6595 Y1.7345
X2.6846 Y1.7199
X2.7043 Y1.6985
X2.7184 Y1.6731
X2.7276 Y1.6455
X2.7332 Y1.6171
X2.7366 Y1.5882
X2.7385 Y1.5592
X2.7395 Y1.5302
X2.7401 Y1.5011
X2.7404 Y1.4721
X2.7406 Y1.4431
Y1.414
X2.7407 Y1.3269
Y0.3973
X2.7401 Y0.3683
X2.7339 Y0.3399
X2.7191 Y0.3149
X2.6977 Y0.2953
X2.6722 Y0.2814
X2.6446 Y0.2723
X2.6161 Y0.2666
X2.5872 Y0.2633
X2.5582 Y0.2615
X2.5292 Y0.2605
X2.5002 Y0.2599
X2.4711 Y0.2596
X2.4421 Y0.2594
X2.413
X2.3259 Y0.2593
X2.2387
X2.2303 Y0.259
X2.2191 Y0.2573
X2.2086 Y0.2529
X2.1995 Y0.2461
X2.1979 Y0.2445
X2.1956 Y0.2425
X2.1824 Y0.2313
X2.1731 Y0.2235
G3 X2.1823 Y0.2017 I0.0084 J-0.0093
G1 X2.1851 Y0.2019 Z-0.0997
X2.1877 Y0.2021 Z-0.0988
X2.1901 Y0.2022 Z-0.0973
X2.1921 Y0.2024 Z-0.0953
X2.1935 Y0.2025 Z-0.0929
X2.1945 Z-0.0903
X2.1948 Z-0.0875
G0 Z0.1969
X0.8912 Y0.1629
Z-0.075
G1 Z-0.0875 F60
X0.8911 Y0.1632 Z-0.0903
X0.8908 Y0.1641 Z-0.0929
X0.8903 Y0.1655 Z-0.0953
X0.8897 Y0.1674 Z-0.0973
X0.8889 Y0.1696 Z-0.0988
X0.8881 Y0.1721 Z-0.0997
X0.8872 Y0.1748 Z-0.1
G3 X0.8703 Y0.2007 I-0.0591 J-0.02
G1 X0.8637 Y0.2063
X0.8571 Y0.2123
X0.8469 Y0.2217
X0.8424 Y0.2255
X0.8377 Y0.229
X0.8327 Y0.2322
X0.8274 Y0.2349
X0.8218 Y0.2376
X0.8157 Y0.24
X0.8079 Y0.2428
X0.7979 Y0.2457
X0.7872 Y0.2483
X0.7723 Y0.2512
X0.7535 Y0.2539
X0.7246 Y0.2566
X0.6956 Y0.2579
X0.6665 Y0.2586
X0.6375 Y0.2589
X0.6085 Y0.2591
X0.5794 Y0.2592
X0.4923
X0.4342
X0.4051 Y0.2594
X0.3762 Y0.2624
X0.3495 Y0.2738
X0.3276 Y0.2929
X0.3114 Y0.317
X0.3005 Y0.3439
X0.2936 Y0.3721
X0.2895 Y0.4009
X0.2871 Y0.4298
X0.2858 Y0.4589
X0.2851 Y0.4879
X0.2847 Y0.5169
X0.2845 Y0.546
X0.2844 Y0.575
X0.2843 Y0.6331
Y0.8946
X0.2842 Y1.5627
X0.2843 Y1.5917
X0.2868 Y1.6207
X0.2972 Y1.6478
X0.3156 Y1.6703
X0.3393 Y1.6871
X0.366 Y1.6985
X0.3941 Y1.7058
X0.4229 Y1.7101
X0.4518 Y1.7126
X0.4808 Y1.714
X0.5098 Y1.7148
X0.5389 Y1.7152
X0.5679 Y1.7155
X0.597 Y1.7156
X0.6551 Y1.7157
X0.7422
X0.7571 Y1.7159
X0.7652 Y1.7164
X0.7728 Y1.7173
X0.7825 Y1.7199
X0.7913 Y1.7246
X0.7989 Y1.7311
X0.805 Y1.7391
X0.8068 Y1.7423
X0.8111 Y1.7489
X0.8176 Y1.7571
G0 Z0.1969
X2.1544 Y1.8129
Z-0.075
G1 Z-0.0875 F60
X2.1545 Y1.8126 Z-0.0903
X2.1549 Y1.8118 Z-0.0929
X2.1553 Y1.8104 Z-0.0953
X2.156 Y1.8085 Z-0.0973
X2.1568 Y1.8063 Z-0.0988
X2.1577 Y1.8038 Z-0.0997
X2.1586 Y1.8011 Z-0.1
G3 X2.1758 Y1.7754 I0.0587 J0.0208
G1 X2.1824 Y1.77
X2.1839 Y1.7687
X2.1956 Y1.7583
X2.1987 Y1.7555
X2.2006 Y1.7536
X2.2051 Y1.7497
X2.2098 Y1.7462
X2.2148 Y1.743
X2.22 Y1.7402
X2.2253 Y1.7377
X2.2318 Y1.7351
X2.2401 Y1.7322
X2.2487 Y1.7296
X2.2602 Y1.7268
X2.2746 Y1.724
X2.2942 Y1.7212
X2.323 Y1.7184
X2.352 Y1.7171
X2.3811 Y1.7164
X2.4101 Y1.7161
X2.4392 Y1.7159
X2.4682 Y1.7158
X2.5844 Y1.7157
X2.6134 Y1.7145
X2.6413 Y1.7063
X2.6652 Y1.6898
X2.6835 Y1.6672
X2.6962 Y1.6411
X2.7044 Y1.6132
X2.7093 Y1.5846
X2.7122 Y1.5557
X2.7138 Y1.5267
X2.7147 Y1.4977
X2.7152 Y1.4686
X2.7154 Y1.4396
X2.7156 Y1.4105
X2.7157 Y1.3524
Y1.1781
Y0.4229
X2.7152 Y0.3939
X2.7091 Y0.3655
X2.6944 Y0.3404
X2.673 Y0.3207
X2.6476 Y0.3067
X2.6201 Y0.2974
X2.5916 Y0.2918
X2.5627 Y0.2884
X2.5337 Y0.2866
X2.5047 Y0.2855
X2.4757 Y0.2849
X2.4466 Y0.2846
X2.4176 Y0.2844
X2.3885
X2.3014 Y0.2843
X2.2723
X2.2571 Y0.284
X2.254 Y0.2838
X2.2433 Y0.2818
X2.2335 Y0.2774
X2.2249 Y0.2708
X2.1995 Y0.2461
G3 X2.2103 Y0.225 I0.009 J-0.0087
G1 X2.213 Y0.2254 Z-0.0997
X2.2156 Y0.2258 Z-0.0988
X2.218 Y0.2261 Z-0.0973
X2.2199 Y0.2264 Z-0.0953
X2.2214 Y0.2266 Z-0.0929
X2.2223 Y0.2267 Z-0.0903
X2.2226 Y0.2268 Z-0.0875
G0 Z0.1969
X0.8663 Y0.1832
Z-0.075
G1 Z-0.0875 F60
X0.8662 Y0.1835 Z-0.0903
X0.866 Y0.1844 Z-0.0929
X0.8655 Y0.1858 Z-0.0953
X0.865 Y0.1877 Z-0.0973
X0.8643 Y0.19 Z-0.0988
X0.8636 Y0.1925 Z-0.0997
X0.8628 Y0.1952 Z-0.1
G3 X0.847 Y0.2217 I-0.0598 J-0.0177
G1 X0.8197 Y0.2469
X0.8152 Y0.2507
X0.8104 Y0.2542
X0.8053 Y0.2572
X0.8001 Y0.2599
X0.7939 Y0.2627
X0.7876 Y0.2652
X0.7794 Y0.268
X0.7686 Y0.2711
X0.7573 Y0.2737
X0.7414 Y0.2766
X0.7209 Y0.2794
X0.692 Y0.2818
X0.663 Y0.283
X0.6339 Y0.2836
X0.6049 Y0.2839
X0.5758 Y0.2841
X0.5177 Y0.2842
X0.4596
X0.4306 Y0.2843
X0.4017 Y0.2873
X0.375 Y0.2986
X0.3529 Y0.3176
X0.3367 Y0.3417
X0.3257 Y0.3685
X0.3187 Y0.3968
X0.3146 Y0.4255
X0.3122 Y0.4545
X0.3109 Y0.4835
X0.3101 Y0.5125
X0.3097 Y0.5416
X0.3095 Y0.5706
X0.3094 Y0.5997
X0.3093 Y0.6577
Y0.8901
X0.3092 Y1.5292
X0.3093 Y1.5582
X0.3103 Y1.5873
X0.3182 Y1.6152
X0.3346 Y1.6392
X0.357 Y1.6576
X0.3831 Y1.6705
X0.4109 Y1.6789
X0.4395 Y1.684
X0.4684 Y1.687
X0.4974 Y1.6887
X0.5264 Y1.6896
X0.5554 Y1.6901
X0.5845 Y1.6904
X0.6135 Y1.6906
X0.6716 Y1.6907
X0.7007
X0.7297 Y1.6908
X0.7411 Y1.6912
X0.7508 Y1.6921
X0.7569 Y1.693
X0.763 Y1.6941
X0.7663 Y1.6949
X0.7768 Y1.6988
X0.7861 Y1.7052
X0.7935 Y1.7136
X0.7986 Y1.7236
X0.8006 Y1.7291
X0.8033 Y1.7357
X0.8044 Y1.7382
X0.805 Y1.7391
G3 X0.7891 Y1.7566 I-0.011 J0.006
G1 X0.7865 Y1.7555 Z-0.0997
X0.7841 Y1.7545 Z-0.0988
X0.7819 Y1.7536 Z-0.0973
X0.7801 Y1.7528 Z-0.0953
X0.7787 Y1.7522 Z-0.0929
X0.7779 Y1.7519 Z-0.0903
X0.7776 Y1.7517 Z-0.0875
G0 Z0.1969
X2.1821 Y1.7926
Z-0.075
G1 Z-0.0875 F60
X2.1822 Y1.7923 Z-0.0903
X2.1825 Y1.7914 Z-0.0929
X2.1829 Y1.7899 Z-0.0953
X2.1834 Y1.788 Z-0.0973
X2.184 Y1.7857 Z-0.0988
X2.1847 Y1.7832 Z-0.0997
X2.1854 Y1.7805 Z-0.1
G3 X2.2006 Y1.7536 I0.0601 J0.0163
G1 X2.2259 Y1.7291
X2.2303 Y1.7252
X2.2351 Y1.7217
X2.2401 Y1.7186
X2.2453 Y1.7158
X2.2513 Y1.7131
X2.2578 Y1.7104
X2.2657 Y1.7077
X2.2762 Y1.7046
X2.2875 Y1.7018
X2.3025 Y1.6989
X2.3219 Y1.6962
X2.3509 Y1.6935
X2.3799 Y1.6921
X2.4089 Y1.6915
X2.438 Y1.6911
X2.467 Y1.6909
X2.4961
X2.5542 Y1.6908
X2.5832 Y1.6902
X2.6115 Y1.6836
X2.6362 Y1.6683
X2.6555 Y1.6466
X2.6691 Y1.6209
X2.678 Y1.5933
X2.6835 Y1.5648
X2.6867 Y1.5359
X2.6885 Y1.5069
X2.6895 Y1.4779
X2.6901 Y1.4488
X2.6904 Y1.4198
X2.6906 Y1.3907
Y1.3617
X2.6907 Y1.2745
Y0.4612
X2.6906 Y0.4321
X2.6879 Y0.4032
X2.6771 Y0.3763
X2.6584 Y0.354
X2.6345 Y0.3375
X2.6077 Y0.3262
X2.5796 Y0.3191
X2.5509 Y0.3148
X2.5219 Y0.3123
X2.4929 Y0.3109
X2.4639 Y0.3102
X2.4348 Y0.3097
X2.4058 Y0.3095
X2.3767 Y0.3094
X2.2896 Y0.3092
X2.2802 Y0.3088
X2.2713 Y0.3075
X2.2628 Y0.3045
X2.2551 Y0.2999
X2.2484 Y0.2939
X2.2385 Y0.2841
X2.2249 Y0.2708
G0 Z0.1969
X0.8391 Y0.2084
Z-0.075
G1 Z-0.0875 F60
X0.839 Y0.2087 Z-0.0903
X0.8387 Y0.2096 Z-0.0929
X0.8383 Y0.211 Z-0.0953
X0.8377 Y0.2129 Z-0.0973
X0.8371 Y0.2152 Z-0.0988
X0.8363 Y0.2177 Z-0.0997
X0.8355 Y0.2204 Z-0.1
G3 X0.8197 Y0.2469 I-0.0597 J-0.0176
G1 X0.7978 Y0.2673
X0.7939 Y0.2709
X0.7894 Y0.2748
X0.7847 Y0.2783
X0.7797 Y0.2814
X0.7744 Y0.2842
X0.7688 Y0.2868
X0.7617 Y0.2897
X0.7543 Y0.2923
X0.7445 Y0.2952
X0.7323 Y0.2981
X0.7179 Y0.3009
X0.698 Y0.3038
X0.6691 Y0.3065
X0.64 Y0.3078
X0.611 Y0.3085
X0.582 Y0.3089
X0.5529 Y0.309
X0.5239 Y0.3091
X0.4658 Y0.3092
X0.4367 Y0.3103
X0.4089 Y0.3186
X0.3851 Y0.3352
X0.3668 Y0.3578
X0.3541 Y0.3839
X0.3459 Y0.4118
X0.3409 Y0.4404
X0.3379 Y0.4693
X0.3363 Y0.4983
X0.3354 Y0.5273
X0.3348 Y0.5564
X0.3346 Y0.5854
X0.3344 Y0.6145
X0.3343 Y0.6726
Y0.8468
Y1.5149
X0.3344 Y1.544
X0.3373 Y1.5729
X0.3484 Y1.5997
X0.3674 Y1.6218
X0.3914 Y1.6381
X0.4183 Y1.6491
X0.4464 Y1.6562
X0.4752 Y1.6604
X0.5041 Y1.6628
X0.5331 Y1.6641
X0.5622 Y1.6649
X0.5912 Y1.6653
X0.6203 Y1.6655
X0.6493 Y1.6656
X0.7074 Y1.6657
X0.7244 Y1.6664
X0.7294 Y1.6668
X0.7407 Y1.6692
X0.751 Y1.6744
X0.7597 Y1.6819
X0.7605 Y1.6829
X0.7682 Y1.6895
X0.7714 Y1.6918
X0.778 Y1.6961
X0.7846 Y1.7
X0.7899 Y1.7027
X0.7912 Y1.7036
X0.7926 Y1.705
X0.7936 Y1.7065
X0.7945 Y1.7079
X0.7952 Y1.7093
X0.7957 Y1.7109
X0.7966 Y1.7159
X0.7978 Y1.721
X0.7982 Y1.7225
X0.7986 Y1.7236
G0 Z0.1969
X2.2074 Y1.7681
Z-0.075
G1 Z-0.0875 F60
X2.2075 Y1.7677 Z-0.0903
X2.2077 Y1.7669 Z-0.0929
X2.2081 Y1.7654 Z-0.0953
X2.2086 Y1.7635 Z-0.0973
X2.2093 Y1.7612 Z-0.0988
X2.21 Y1.7587 Z-0.0997
X2.2107 Y1.756 Z-0.1
G3 X2.2259 Y1.7291 I0.0601 J0.0162
G1 X2.2418 Y1.7137
X2.2462 Y1.7093
X2.2484 Y1.7071
X2.2525 Y1.7029
X2.2571 Y1.6991
X2.262 Y1.6958
X2.2671 Y1.6929
X2.2724 Y1.6902
X2.2788 Y1.6874
X2.2858 Y1.6847
X2.2944 Y1.6819
X2.306 Y1.6787
X2.318 Y1.676
X2.3351 Y1.673
X2.3578 Y1.6702
X2.3868 Y1.668
X2.4158 Y1.6669
X2.4448 Y1.6664
X2.4739 Y1.6661
X2.5029 Y1.6659
X2.532 Y1.6658
X2.561 Y1.6648
X2.5891 Y1.6572
X2.6133 Y1.6413
X2.6321 Y1.6191
X2.6452 Y1.5932
X2.6537 Y1.5654
X2.6589 Y1.5368
X2.6619 Y1.5079
X2.6636 Y1.4789
X2.6646 Y1.4499
X2.6651 Y1.4209
X2.6654 Y1.3918
X2.6656 Y1.3628
X2.6657 Y1.3047
Y1.1594
Y0.4913
Y0.4623
X2.6639 Y0.4333
X2.6545 Y0.4058
X2.637 Y0.3826
X2.6139 Y0.365
X2.5875 Y0.3529
X2.5595 Y0.3451
X2.5308 Y0.3404
X2.5019 Y0.3377
X2.4729 Y0.3361
X2.4439 Y0.3353
X2.4148 Y0.3348
X2.3858 Y0.3345
X2.3568 Y0.3344
X2.3277 Y0.3343
X2.3099 Y0.3341
X2.3014 Y0.3336
X2.2996 Y0.3334
X2.2886 Y0.3308
X2.2786 Y0.3256
X2.2702 Y0.3181
X2.2615 Y0.3083
X2.2484 Y0.2939
G3 X2.2604 Y0.2736 I0.0095 J-0.0081
G1 X2.2631 Y0.2741 Z-0.0997
X2.2657 Y0.2746 Z-0.0988
X2.2681 Y0.2751 Z-0.0973
X2.27 Y0.2755 Z-0.0953
X2.2715 Y0.2758 Z-0.0929
X2.2724 Y0.2759 Z-0.0903
X2.2727 Y0.276 Z-0.0875
G0 Z0.1969
X2.2328 Y1.7473
Z-0.075
G1 Z-0.0875 F60
X2.2329 Y1.747 Z-0.0903
X2.2331 Y1.7461 Z-0.0929
X2.2333 Y1.7446 Z-0.0953
X2.2337 Y1.7427 Z-0.0973
X2.2342 Y1.7404 Z-0.0988
X2.2347 Y1.7378 Z-0.0997
X2.2352 Y1.735 Z-0.1
G3 X2.2484 Y1.7071 I0.0612 J0.0118
G1 X2.2681 Y1.6848
X2.2723 Y1.6806
X2.2767 Y1.6767
X2.2815 Y1.6732
X2.2865 Y1.6701
X2.2917 Y1.6673
X2.2976 Y1.6645
X2.3043 Y1.6618
X2.313 Y1.6587
X2.3222 Y1.6558
X2.3342 Y1.6528
X2.3491 Y1.6498
X2.3689 Y1.6468
X2.3969 Y1.6439
X2.4259 Y1.6424
X2.4549 Y1.6416
X2.484 Y1.6412
X2.513 Y1.6409
X2.542 Y1.639
X2.5695 Y1.6296
X2.5928 Y1.6122
X2.6103 Y1.589
X2.6224 Y1.5626
X2.6301 Y1.5346
X2.6347 Y1.5059
X2.6374 Y1.477
X2.6389 Y1.448
X2.6397 Y1.419
X2.6402 Y1.3899
X2.6404 Y1.3609
X2.6406 Y1.3318
X2.6407 Y1.2737
Y1.0994
X2.6408 Y0.5185
X2.6407 Y0.4894
X2.6392 Y0.4604
X2.6304 Y0.4327
X2.6135 Y0.4092
X2.5907 Y0.3912
X2.5644 Y0.3787
X2.5365 Y0.3706
X2.5079 Y0.3657
X2.479 Y0.3629
X2.45 Y0.3612
X2.4209 Y0.3603
X2.3919 Y0.3598
X2.3361 Y0.3593
X2.3245 Y0.3587
X2.3217 Y0.3584
X2.3107 Y0.3558
X2.3006 Y0.3506
X2.2921 Y0.3431
X2.2702 Y0.3181
G3 X2.2825 Y0.2981 I0.0096 J-0.0079
G1 X2.2852 Y0.2986 Z-0.0997
X2.2878 Y0.2991 Z-0.0988
X2.2901 Y0.2997 Z-0.0973
X2.2921 Y0.3001 Z-0.0953
X2.2935 Y0.3004 Z-0.0929
X2.2944 Y0.3006 Z-0.0903
X2.2947 Y0.3007 Z-0.0875
G0 Z0.1969
X2.2527 Y1.725
Z-0.075
G1 Z-0.0875 F60
Y1.7247 Z-0.0903
X2.2529 Y1.7238 Z-0.0929
X2.2532 Y1.7224 Z-0.0953
X2.2535 Y1.7204 Z-0.0973
X2.254 Y1.7181 Z-0.0988
X2.2545 Y1.7155 Z-0.0997
X2.255 Y1.7128 Z-0.1
G3 X2.2681 Y1.6848 I0.0612 J0.0116
G1 X2.2895 Y1.6606
X2.2936 Y1.6564
X2.2981 Y1.6525
X2.3028 Y1.649
X2.3079 Y1.6459
X2.313 Y1.6431
X2.3187 Y1.6404
X2.3261 Y1.6373
X2.3338 Y1.6345
X2.3438 Y1.6314
X2.3561 Y1.6282
X2.3703 Y1.6252
X2.3895 Y1.6222
X2.4169 Y1.6193
X2.4459 Y1.6176
X2.4749 Y1.6167
X2.5039 Y1.6158
X2.5324 Y1.6101
X2.5578 Y1.5961
X2.578 Y1.5751
X2.5924 Y1.5499
X2.6019 Y1.5225
X2.6078 Y1.494
X2.6113 Y1.4652
X2.6133 Y1.4362
X2.6144 Y1.4072
X2.615 Y1.3781
X2.6154 Y1.3491
X2.6155 Y1.32
X2.6156 Y1.291
X2.6157 Y1.2329
Y0.9134
Y0.5357
X2.6156 Y0.5067
X2.6128 Y0.4778
X2.6017 Y0.4509
X2.583 Y0.4287
X2.559 Y0.4123
X2.5322 Y0.4011
X2.5041 Y0.394
X2.4753 Y0.3897
X2.4464 Y0.3873
X2.4174 Y0.3859
X2.3883 Y0.3852
X2.3593 Y0.3847
X2.3471 Y0.384
X2.342 Y0.3834
X2.3329 Y0.3815
X2.3244 Y0.3778
X2.3169 Y0.3725
X2.3105 Y0.3657
X2.3011 Y0.3535
X2.2983 Y0.3501
X2.2921 Y0.3431
G3 X2.3045 Y0.323 I0.0097 J-0.0079
G1 X2.3072 Y0.3235 Z-0.0997
X2.3098 Y0.3241 Z-0.0988
X2.3121 Y0.3246 Z-0.0973
X2.314 Y0.3251 Z-0.0953
X2.3155 Y0.3254 Z-0.0929
X2.3164 Y0.3256 Z-0.0903
X2.3167 Z-0.0875
G0 Z0.1969
X2.2742 Y1.701
Z-0.075
G1 Z-0.0875 F60
X2.2743 Y1.7007 Z-0.0903
X2.2744 Y1.6998 Z-0.0929
X2.2747 Y1.6983 Z-0.0953
X2.2751 Y1.6964 Z-0.0973
X2.2755 Y1.694 Z-0.0988
X2.276 Y1.6914 Z-0.0997
X2.2765 Y1.6887 Z-0.1
G3 X2.2895 Y1.6606 I0.0613 J0.0113
G1 X2.2945 Y1.6549
X2.2988 Y1.6499
X2.3011 Y1.6471
X2.3069 Y1.6394
X2.3107 Y1.6349
X2.315 Y1.6307
X2.3196 Y1.6271
X2.3245 Y1.6237
X2.3295 Y1.6207
X2.3348 Y1.6179
X2.3411 Y1.615
X2.3488 Y1.6119
X2.3571 Y1.609
X2.3684 Y1.6057
X2.3808 Y1.6026
X2.3973 Y1.5995
X2.4179 Y1.5965
X2.4468 Y1.5938
X2.4758 Y1.5922
X2.5044 Y1.5871
X2.5302 Y1.5736
X2.5509 Y1.5532
X2.5659 Y1.5283
X2.5759 Y1.5011
X2.5822 Y1.4727
X2.5859 Y1.4439
X2.5881 Y1.4149
X2.5893 Y1.3859
X2.5899 Y1.3569
X2.5903 Y1.3278
X2.5905 Y1.2988
X2.5906 Y1.2697
X2.5907 Y1.2116
Y0.9502
Y0.5726
Y0.5435
X2.5898 Y0.5145
X2.5824 Y0.4864
X2.5665 Y0.4621
X2.5443 Y0.4434
X2.5184 Y0.4301
X2.4907 Y0.4215
X2.4621 Y0.4163
X2.4332 Y0.4132
X2.4042 Y0.4114
X2.3761 Y0.4103
X2.3647 Y0.4093
X2.3599 Y0.4086
X2.3511 Y0.4065
X2.3429 Y0.4028
X2.3356 Y0.3974
X2.3295 Y0.3908
X2.3137 Y0.3699
X2.3105 Y0.3657
G3 X2.3242 Y0.3465 I0.0102 J-0.0072
G1 X2.3269 Y0.3473 Z-0.0997
X2.3294 Y0.348 Z-0.0988
X2.3317 Y0.3487 Z-0.0973
X2.3336 Y0.3492 Z-0.0953
X2.335 Y0.3496 Z-0.0929
X2.3359 Y0.3499 Z-0.0903
X2.3362 Y0.35 Z-0.0875
G0 Z0.1969
X2.2946 Y1.6807
Z-0.075
G1 Z-0.0875 F60
Y1.6804 Z-0.0903
X2.2947 Y1.6795 Z-0.0929
X2.2949 Y1.678 Z-0.0953
X2.2951 Y1.676 Z-0.0973
X2.2954 Y1.6737 Z-0.0988
X2.2957 Y1.671 Z-0.0997
X2.296 Y1.6683 Z-0.1
G3 X2.307 Y1.6394 I0.0619 J0.007
G1 X2.324 Y1.6169
X2.3278 Y1.6124
X2.3319 Y1.6081
X2.3364 Y1.6043
X2.3412 Y1.6008
X2.3462 Y1.5977
X2.3513 Y1.5949
X2.3577 Y1.5918
X2.3644 Y1.5888
X2.3733 Y1.5855
X2.3826 Y1.5825
X2.3951 Y1.5792
X2.4103 Y1.576
X2.4389 Y1.5712
X2.4677 Y1.5673
X2.4949 Y1.557
X2.5177 Y1.539
X2.535 Y1.5157
X2.547 Y1.4892
X2.5548 Y1.4613
X2.5595 Y1.4326
X2.5623 Y1.4037
X2.5638 Y1.3747
X2.5647 Y1.3456
X2.5652 Y1.3166
X2.5654 Y1.2875
X2.5656 Y1.2585
X2.5657 Y1.2004
Y1.0261
Y0.5904
X2.5656 Y0.5613
X2.5638 Y0.5324
X2.5541 Y0.505
X2.5365 Y0.4819
X2.5132 Y0.4645
X2.4867 Y0.4525
X2.4587 Y0.4449
X2.43 Y0.4403
X2.4011 Y0.4375
X2.3863 Y0.4361
X2.3802 Y0.4352
X2.371 Y0.4329
X2.3624 Y0.4288
X2.3547 Y0.4231
X2.3483 Y0.4161
X2.3336 Y0.3963
X2.3295 Y0.3908
G3 X2.3433 Y0.3717 I0.0102 J-0.0072
G1 X2.346 Y0.3725 Z-0.0997
X2.3485 Y0.3732 Z-0.0988
X2.3508 Y0.3739 Z-0.0973
X2.3527 Y0.3745 Z-0.0953
X2.3541 Y0.3749 Z-0.0929
X2.355 Y0.3752 Z-0.0903
X2.3553 Y0.3753 Z-0.0875
G0 Z0.1969
X2.3116 Y1.6582
Z-0.075
G1 Z-0.0875 F60
Y1.6579 Z-0.0903
X2.3117 Y1.657 Z-0.0929
X2.3119 Y1.6555 Z-0.0953
X2.3121 Y1.6536 Z-0.0973
X2.3124 Y1.6512 Z-0.0988
X2.3127 Y1.6486 Z-0.0997
X2.313 Y1.6458 Z-0.1
G3 X2.324 Y1.6169 I0.0619 J0.007
G1 X2.3341 Y1.6036
X2.3423 Y1.5923
X2.346 Y1.5877
X2.3502 Y1.5836
X2.3547 Y1.5798
X2.3595 Y1.5764
X2.3645 Y1.5732
X2.3702 Y1.5701
X2.3761 Y1.5672
X2.3838 Y1.564
X2.394 Y1.5602
X2.406 Y1.5564
X2.4341 Y1.549
X2.4616 Y1.5397
X2.4857 Y1.5235
X2.5047 Y1.5015
X2.5183 Y1.4758
X2.5273 Y1.4482
X2.533 Y1.4197
X2.5364 Y1.3909
X2.5383 Y1.3619
X2.5394 Y1.3329
X2.54 Y1.3038
X2.5403 Y1.2748
X2.5405 Y1.2457
X2.5406 Y1.2167
X2.5407 Y1.1586
Y0.8391
Y0.6067
X2.5404 Y0.5776
X2.5367 Y0.5488
X2.5246 Y0.5224
X2.505 Y0.501
X2.4805 Y0.4853
X2.4534 Y0.4748
X2.4252 Y0.4681
X2.4033 Y0.4644
X2.3942 Y0.4624
X2.3918 Y0.4618
X2.3814 Y0.4575
X2.3724 Y0.4509
X2.3652 Y0.4422
X2.3526 Y0.4227
X2.3483 Y0.4161
G3 X2.3634 Y0.3979 I0.0107 J-0.0065
G1 X2.366 Y0.3989 Z-0.0997
X2.3685 Y0.3998 Z-0.0988
X2.3707 Y0.4006 Z-0.0973
X2.3726 Y0.4013 Z-0.0953
X2.374 Y0.4019 Z-0.0929
X2.3748 Y0.4022 Z-0.0903
X2.3751 Y0.4023 Z-0.0875
G0 Z0.1969
X2.3307 Y1.6339
Z-0.075
G1 Z-0.0875 F60
X2.3308 Y1.6336 Z-0.0903
Y1.6327 Z-0.0929
X2.331 Y1.6312 Z-0.0953
X2.3312 Y1.6292 Z-0.0973
X2.3314 Y1.6269 Z-0.0988
X2.3316 Y1.6242 Z-0.0997
X2.3319 Y1.6215 Z-0.1
G3 X2.3423 Y1.5923 I0.062 J0.0057
G1 X2.3484 Y1.5839
X2.3539 Y1.5756
X2.357 Y1.5707
X2.3604 Y1.5659
X2.3644 Y1.5616
X2.3688 Y1.5576
X2.3735 Y1.554
X2.3784 Y1.5507
X2.3842 Y1.5472
X2.3936 Y1.5422
X2.4198 Y1.5297
X2.4455 Y1.5162
X2.4674 Y1.4971
X2.4843 Y1.4735
X2.4963 Y1.447
X2.5041 Y1.419
X2.509 Y1.3904
X2.5119 Y1.3615
X2.5136 Y1.3325
X2.5146 Y1.3034
X2.5151 Y1.2744
X2.5154 Y1.2454
X2.5156 Y1.2163
X2.5157 Y1.1754
Y1.1726
X2.516 Y1.1699
X2.5164 Y1.1671
X2.5187 Y1.155
X2.5197 Y1.1485
X2.5271 Y1.0891
X2.5278 Y1.0825
X2.529 Y1.0693
X2.5295 Y1.0627
X2.5315 Y1.0165
X2.532 Y1.0033
Y0.9967
X2.5309 Y0.9703
X2.5295 Y0.9373
X2.529 Y0.9307
X2.5278 Y0.9175
X2.5271 Y0.9109
X2.5214 Y0.8647
X2.5172 Y0.8068
X2.5163 Y0.7778
X2.516 Y0.7487
X2.5159 Y0.7197
X2.5158 Y0.6616
Y0.6325
X2.5156 Y0.6035
X2.5121 Y0.5746
X2.5001 Y0.5482
X2.4806 Y0.5266
X2.4563 Y0.5107
X2.4294 Y0.4998
X2.4096 Y0.4935
X2.4087 Y0.4932
X2.3998 Y0.4888
X2.3921 Y0.4825
X2.3858 Y0.4747
X2.378 Y0.4623
X2.3652 Y0.4422
G3 X2.3804 Y0.4243 I0.0107 J-0.0063
G1 X2.383 Y0.4252 Z-0.0997
X2.3855 Y0.4262 Z-0.0988
X2.3877 Y0.427 Z-0.0973
X2.3896 Y0.4277 Z-0.0953
X2.391 Y0.4283 Z-0.0929
X2.3918 Y0.4286 Z-0.0903
X2.3921 Y0.4287 Z-0.0875
G0 Z0.1969
X2.5414 Y0.903
Z-0.075
G1 Z-0.0875 F60
X2.5412 Y0.9027 Z-0.0903
X2.5406 Y0.902 Z-0.0929
X2.5397 Y0.9008 Z-0.0953
X2.5385 Y0.8993 Z-0.0973
X2.537 Y0.8974 Z-0.0988
X2.5354 Y0.8953 Z-0.0997
X2.5337 Y0.8931 Z-0.1
G3 X2.5214 Y0.8647 I0.0492 J-0.0382
G1 X2.5198 Y0.8515
X2.5187 Y0.8448
X2.5138 Y0.8186
X2.5075 Y0.7856
X2.5055 Y0.7761
X2.5033 Y0.7658
X2.5016 Y0.7592
X2.5007 Y0.7555
X2.4985 Y0.7458
X2.4964 Y0.7327
X2.4941 Y0.7134
X2.4921 Y0.6844
X2.4913 Y0.6554
X2.4908 Y0.6263
X2.4867 Y0.5976
X2.474 Y0.5714
X2.4542 Y0.5502
X2.4301 Y0.534
X2.4253 Y0.5314
X2.4181 Y0.5264
X2.412 Y0.5202
X2.4071 Y0.5129
G3 X2.4237 Y0.4961 I0.0112 J-0.0055
G1 X2.4262 Y0.4973 Z-0.0997
X2.4286 Y0.4984 Z-0.0988
X2.4307 Y0.4995 Z-0.0973
X2.4325 Y0.5003 Z-0.0953
X2.4338 Y0.5009 Z-0.0929
X2.4347 Y0.5013 Z-0.0903
X2.435 Y0.5015 Z-0.0875
G0 Z0.1969
X2.5258 Y0.7906
Z-0.075
G1 Z-0.0875 F60
X2.5256 Y0.7904 Z-0.0903
X2.5249 Y0.7898 Z-0.0929
X2.5238 Y0.7887 Z-0.0953
X2.5224 Y0.7873 Z-0.0973
X2.5207 Y0.7857 Z-0.0988
X2.5188 Y0.7838 Z-0.0997
X2.5168 Y0.7819 Z-0.1
G3 X2.5007 Y0.7555 I0.0434 J-0.0447
G1 X2.4856 Y0.6998
X2.4835 Y0.6932
X2.4791 Y0.6803
X2.4756 Y0.6679
X2.4691 Y0.6396
X2.4603 Y0.6119
X2.4446 Y0.5875
X2.4433 Y0.5861
X2.4423 Y0.5845
X2.4414 Y0.5828
G3 X2.4484 Y0.5666 I0.0116 J-0.0046
X2.4646 Y0.5737 I0.0046 J0.0116
G1 X2.5025 Y0.6713
G3 X2.4953 Y0.6875 I-0.0117 J0.0045
X2.4791 Y0.6803 I-0.0045 J-0.0117
G1 X2.4768 Y0.6734
X2.4627 Y0.6338
X2.4577 Y0.6206
X2.4551 Y0.614
X2.4528 Y0.6084
X2.4348 Y0.5678
X2.4258 Y0.548
X2.4224 Y0.5414
X2.3905 Y0.4821
X2.3858 Y0.4747
G3 X2.4012 Y0.4568 I0.0108 J-0.0063
G1 X2.4038 Y0.4578 Z-0.0997
X2.4063 Y0.4587 Z-0.0988
X2.4085 Y0.4596 Z-0.0973
X2.4103 Y0.4603 Z-0.0953
X2.4117 Y0.4609 Z-0.0929
X2.4126 Y0.4612 Z-0.0903
X2.4129 Y0.4613 Z-0.0875
G0 Z0.1969
X2.3478 Y1.6129
Z-0.075
G1 Z-0.0875 F60
Y1.6126 Z-0.0903
Y1.6116 Z-0.0929
X2.3479 Y1.6101 Z-0.0953
X2.348 Y1.6082 Z-0.0973
Y1.6058 Z-0.0988
X2.3481 Y1.6032 Z-0.0997
X2.3482 Y1.6004 Z-0.1
G3 X2.3569 Y1.5707 I0.0623 J0.0022
G1 X2.3719 Y1.5476
X2.3753 Y1.5428
X2.3791 Y1.5382
X2.3832 Y1.534
X2.3886 Y1.5289
X2.4109 Y1.5102
X2.433 Y1.4914
X2.4515 Y1.469
X2.4654 Y1.4435
X2.4751 Y1.4161
X2.4814 Y1.3878
X2.4853 Y1.359
X2.4876 Y1.33
X2.489 Y1.301
X2.4892 Y1.2916
X2.4895 Y1.2879
X2.49 Y1.2843
X2.4908 Y1.2808
G3 X2.5145 Y1.28 I0.012 J0.0037
G1 X2.5154 Y1.2826 Z-0.0997
X2.5164 Y1.285 Z-0.0988
X2.5172 Y1.2873 Z-0.0973
X2.5179 Y1.2891 Z-0.0953
X2.5185 Y1.2905 Z-0.0929
X2.5188 Y1.2913 Z-0.0903
X2.5189 Y1.2916 Z-0.0875
G0 Z0.1969
X2.3627 Y1.5897
Z-0.075
G1 Z-0.0875 F60
Y1.5894 Z-0.0903
Y1.5885 Z-0.0929
X2.3628 Y1.587 Z-0.0953
X2.3629 Y1.585 Z-0.0973
Y1.5827 Z-0.0988
X2.363 Y1.58 Z-0.0997
X2.3631 Y1.5773 Z-0.1
G3 X2.3719 Y1.5476 I0.0623 J0.0022
G1 X2.3782 Y1.5377
X2.3868 Y1.5239
X2.3905 Y1.5179
X2.3934 Y1.5125
X2.4085 Y1.4877
X2.4243 Y1.4633
X2.4376 Y1.4375
X2.4476 Y1.4102
X2.4503 Y1.3994
X2.451 Y1.3968
X2.4518 Y1.3943
X2.4528 Y1.3918
G3 X2.4694 Y1.3858 I0.0113 J0.0052
X2.4752 Y1.4025 I-0.0053 J0.0112
G1 X2.4158 Y1.5236
G3 X2.3991 Y1.5293 I-0.0112 J-0.0055
X2.3934 Y1.5125 I0.0055 J-0.0112
G1 X2.4198 Y1.4637
X2.4226 Y1.4586
X2.4259 Y1.452
X2.4406 Y1.419
X2.4528 Y1.3918
X2.4552 Y1.386
X2.4627 Y1.3662
X2.4768 Y1.3266
X2.4791 Y1.3198
X2.4835 Y1.3068
X2.4856 Y1.3002
X2.5017 Y1.2408
X2.5033 Y1.2342
X2.5061 Y1.221
X2.5075 Y1.2144
X2.5164 Y1.1671
G3 X2.5399 Y1.1644 I0.0122 J0.0027
G1 X2.5411 Y1.1669 Z-0.0997
X2.5422 Y1.1693 Z-0.0988
X2.5433 Y1.1714 Z-0.0973
X2.5441 Y1.1732 Z-0.0953
X2.5448 Y1.1745 Z-0.0929
X2.5452 Y1.1754 Z-0.0903
X2.5453 Y1.1757 Z-0.0875
G0 Z0.1969
X0.8125 Y0.232
Z-0.075
G1 Z-0.0875 F60
X0.8124 Y0.2323 Z-0.0903
X0.8122 Y0.2332 Z-0.0929
X0.8118 Y0.2346 Z-0.0953
X0.8112 Y0.2365 Z-0.0973
X0.8106 Y0.2388 Z-0.0988
X0.8099 Y0.2414 Z-0.0997
X0.8092 Y0.2441 Z-0.1
G3 X0.7939 Y0.2709 I-0.0601 J-0.0165
G1 X0.778 Y0.2862
X0.7689 Y0.2953
X0.7645 Y0.2992
X0.7597 Y0.3027
X0.7547 Y0.3058
X0.7495 Y0.3086
X0.7437 Y0.3113
X0.7368 Y0.3141
X0.7292 Y0.3168
X0.7191 Y0.3198
X0.7072 Y0.3228
X0.6926 Y0.3257
X0.6731 Y0.3285
X0.6442 Y0.3313
X0.6152 Y0.3327
X0.5861 Y0.3335
X0.5571 Y0.3338
X0.528 Y0.334
X0.499 Y0.3341
X0.4699 Y0.3346
X0.4415 Y0.3403
X0.4163 Y0.3548
X0.3965 Y0.376
X0.3823 Y0.4014
X0.3729 Y0.4289
X0.3671 Y0.4573
X0.3636 Y0.4862
X0.3617 Y0.5152
X0.3606 Y0.5442
X0.36 Y0.5732
X0.3596 Y0.6023
X0.3595 Y0.6313
X0.3594 Y0.6604
X0.3593 Y0.7185
Y1.067
Y1.4737
Y1.5028
X0.36 Y1.5318
X0.3663 Y1.5602
X0.3811 Y1.5851
X0.4026 Y1.6046
X0.4281 Y1.6185
X0.4557 Y1.6277
X0.4842 Y1.6333
X0.5131 Y1.6366
X0.5421 Y1.6385
X0.5711 Y1.6395
X0.6001 Y1.6401
X0.6292 Y1.6404
X0.6582 Y1.6406
X0.6873 Y1.6407
X0.693 Y1.6409
X0.7022 Y1.6422
X0.7108 Y1.6453
X0.7187 Y1.6502
X0.7253 Y1.6545
X0.7288 Y1.6565
X0.7319 Y1.658
X0.7385 Y1.6609
X0.741 Y1.6619
X0.7422 Y1.6624
X0.7435 Y1.6631
X0.745 Y1.6642
X0.7465 Y1.6656
X0.7477 Y1.667
X0.7495 Y1.6697
X0.7516 Y1.6727
X0.7546 Y1.6763
X0.7597 Y1.6819
G0 Z0.1969
X0.787 Y0.2561
Z-0.075
G1 Z-0.0875 F60
X0.7869 Y0.2564 Z-0.0903
X0.7867 Y0.2573 Z-0.0929
X0.7863 Y0.2588 Z-0.0953
X0.7858 Y0.2607 Z-0.0973
X0.7852 Y0.263 Z-0.0988
X0.7846 Y0.2655 Z-0.0997
X0.7839 Y0.2682 Z-0.1
G3 X0.7689 Y0.2953 I-0.0603 J-0.0157
G1 X0.7582 Y0.3057
X0.7534 Y0.3105
X0.7471 Y0.3171
X0.7428 Y0.3212
X0.7382 Y0.3249
X0.7334 Y0.3283
X0.7283 Y0.3313
X0.7231 Y0.334
X0.7168 Y0.3369
X0.7098 Y0.3396
X0.7015 Y0.3424
X0.6902 Y0.3457
X0.6783 Y0.3484
X0.6618 Y0.3514
X0.6406 Y0.3542
X0.6116 Y0.3567
X0.5826 Y0.3579
X0.5536 Y0.3585
X0.5245 Y0.3589
X0.4955 Y0.3594
X0.467 Y0.3652
X0.4418 Y0.3795
X0.4218 Y0.4006
X0.4075 Y0.4259
X0.398 Y0.4533
X0.3922 Y0.4818
X0.3887 Y0.5106
X0.3867 Y0.5396
X0.3856 Y0.5686
X0.385 Y0.5977
X0.3847 Y0.6267
X0.3845 Y0.6558
X0.3844 Y0.6848
X0.3843 Y0.7429
Y1.0624
Y1.4691
X0.3845 Y1.4982
X0.3885 Y1.5269
X0.401 Y1.5532
X0.4208 Y1.5744
X0.4454 Y1.5899
X0.4725 Y1.6003
X0.5008 Y1.6069
X0.5296 Y1.6108
X0.5586 Y1.613
X0.5876 Y1.6142
X0.6166 Y1.6149
X0.6637 Y1.6155
X0.6682 Y1.6158
X0.6773 Y1.6173
X0.6859 Y1.6206
X0.6936 Y1.6255
X0.7003 Y1.6318
X0.7055 Y1.6379
X0.7105 Y1.6433
X0.7121 Y1.6448
X0.7187 Y1.6502
G3 X0.7104 Y1.6723 I-0.008 J0.0096
G1 X0.7076 Y1.6722 Z-0.0997
X0.7049 Y1.6721 Z-0.0988
X0.7026 Z-0.0973
X0.7006 Y1.672 Z-0.0953
X0.6991 Z-0.0929
X0.6982 Z-0.0903
X0.6979 Y1.6719 Z-0.0875
G0 Z0.1969
X0.7642 Y0.2775
Z-0.075
G1 Z-0.0875 F60
X0.7641 Y0.2778 Z-0.0903
X0.7639 Y0.2787 Z-0.0929
X0.7636 Y0.2802 Z-0.0953
X0.7631 Y0.2821 Z-0.0973
X0.7626 Y0.2844 Z-0.0988
X0.762 Y0.287 Z-0.0997
X0.7613 Y0.2897 Z-0.1
G3 X0.7471 Y0.3171 I-0.0606 J-0.0141
G1 X0.7319 Y0.333
X0.7282 Y0.3369
X0.7253 Y0.3402
X0.7211 Y0.3443
X0.7167 Y0.3482
X0.7119 Y0.3517
X0.7069 Y0.3548
X0.7017 Y0.3576
X0.6962 Y0.3602
X0.6893 Y0.3631
X0.681 Y0.3661
X0.6719 Y0.3689
X0.6593 Y0.3721
X0.6453 Y0.375
X0.6258 Y0.378
X0.5981 Y0.3809
X0.5691 Y0.3825
X0.54 Y0.3834
X0.511 Y0.3851
X0.4833 Y0.3938
X0.4596 Y0.4105
X0.4415 Y0.4333
X0.4289 Y0.4594
X0.4207 Y0.4873
X0.4158 Y0.5159
X0.4129 Y0.5448
X0.4113 Y0.5738
X0.4103 Y0.6029
X0.4099 Y0.6319
X0.4096 Y0.661
X0.4094 Y0.69
X0.4093 Y0.7481
Y0.9224
Y1.4453
X0.4095 Y1.4743
X0.4138 Y1.503
X0.4266 Y1.5291
X0.4467 Y1.5501
X0.4714 Y1.5654
X0.4985 Y1.5757
X0.5269 Y1.582
X0.5557 Y1.5859
X0.5846 Y1.588
X0.6137 Y1.5893
X0.6377 Y1.5899
X0.6468 Y1.5906
X0.6504 Y1.591
X0.6592 Y1.593
X0.6674 Y1.5966
X0.6747 Y1.6018
X0.6809 Y1.6083
X0.6857 Y1.6144
X0.6877 Y1.6169
X0.6932 Y1.6235
X0.7003 Y1.6318
G3 X0.6876 Y1.6518 I-0.0098 J0.0078
G1 X0.6849 Y1.6511 Z-0.0997
X0.6823 Y1.6505 Z-0.0988
X0.68 Y1.65 Z-0.0973
X0.6781 Y1.6495 Z-0.0953
X0.6766 Y1.6492 Z-0.0929
X0.6757 Y1.649 Z-0.0903
X0.6754 Y1.6489 Z-0.0875
G0 Z0.1969
X0.7411 Y0.3
Z-0.075
G1 Z-0.0875 F60
X0.741 Y0.3003 Z-0.0903
X0.7409 Y0.3012 Z-0.0929
X0.7406 Y0.3027 Z-0.0953
X0.7402 Y0.3046 Z-0.0973
X0.7397 Y0.307 Z-0.0988
X0.7392 Y0.3096 Z-0.0997
X0.7387 Y0.3123 Z-0.1
G3 X0.7253 Y0.3402 I-0.0611 J-0.0122
G1 X0.7163 Y0.3501
X0.7105 Y0.3567
X0.7055 Y0.3628
X0.7016 Y0.3672
X0.6972 Y0.3712
X0.6925 Y0.3748
X0.6876 Y0.378
X0.6824 Y0.3809
X0.6771 Y0.3836
X0.6703 Y0.3866
X0.6628 Y0.3895
X0.6536 Y0.3925
X0.6416 Y0.3958
X0.6288 Y0.3987
X0.6109 Y0.4018
X0.5845 Y0.405
X0.5555 Y0.4072
X0.5267 Y0.411
X0.5001 Y0.4226
X0.4781 Y0.4416
X0.4619 Y0.4657
X0.4508 Y0.4926
X0.4438 Y0.5208
X0.4397 Y0.5495
X0.4373 Y0.5784
X0.4359 Y0.6075
X0.4352 Y0.6365
X0.4347 Y0.6655
X0.4345 Y0.6946
X0.4344 Y0.7236
X0.4343 Y0.7817
Y0.9851
Y1.4208
X0.4345 Y1.4498
X0.4389 Y1.4785
X0.4519 Y1.5045
X0.472 Y1.5254
X0.4968 Y1.5406
X0.524 Y1.5508
X0.5524 Y1.5571
X0.5812 Y1.5609
X0.6101 Y1.5631
X0.6241 Y1.5642
X0.6318 Y1.5652
X0.6349 Y1.5658
X0.6439 Y1.5684
X0.6522 Y1.5728
X0.6594 Y1.5788
X0.6653 Y1.5862
X0.6659 Y1.5871
X0.6774 Y1.6037
X0.6791 Y1.606
X0.6809 Y1.6083
G3 X0.6674 Y1.6276 I-0.0101 J0.0073
G1 X0.6647 Y1.6269 Z-0.0997
X0.6622 Y1.6262 Z-0.0988
X0.6599 Y1.6255 Z-0.0973
X0.658 Y1.625 Z-0.0953
X0.6566 Y1.6246 Z-0.0929
X0.6557 Y1.6243 Z-0.0903
X0.6554 Z-0.0875
G0 Z0.1969
X0.719 Y0.3218
Z-0.075
G1 Z-0.0875 F60
X0.7189 Y0.3221 Z-0.0903
X0.7188 Y0.323 Z-0.0929
X0.7186 Y0.3245 Z-0.0953
X0.7183 Y0.3265 Z-0.0973
X0.718 Y0.3288 Z-0.0988
X0.7176 Y0.3314 Z-0.0997
X0.7172 Y0.3342 Z-0.1
G3 X0.7055 Y0.3627 I-0.0617 J-0.0087
G1 X0.6989 Y0.371
X0.695 Y0.3765
X0.6914 Y0.382
X0.688 Y0.3868
X0.684 Y0.3911
X0.6796 Y0.3951
X0.6748 Y0.3986
X0.6699 Y0.4018
X0.6647 Y0.4047
X0.659 Y0.4076
X0.6518 Y0.4108
X0.6443 Y0.4137
X0.6342 Y0.417
X0.6226 Y0.4203
X0.6082 Y0.4235
X0.5795 Y0.4286
X0.551 Y0.4339
X0.5247 Y0.4462
X0.503 Y0.4655
X0.4869 Y0.4897
X0.4759 Y0.5166
X0.4689 Y0.5448
X0.4648 Y0.5735
X0.4623 Y0.6025
X0.4609 Y0.6315
X0.4602 Y0.6605
X0.4598 Y0.6896
X0.4595 Y0.7186
X0.4594 Y0.7476
X0.4593 Y0.8057
Y1.0091
Y1.3867
Y1.4157
X0.4617 Y1.4447
X0.472 Y1.4719
X0.4902 Y1.4945
X0.5138 Y1.5114
X0.5404 Y1.523
X0.5685 Y1.5304
X0.5972 Y1.5351
X0.6115 Y1.5373
X0.619 Y1.5389
X0.6212 Y1.5395
X0.6296 Y1.5425
X0.6372 Y1.5471
X0.6437 Y1.5531
X0.649 Y1.5602
X0.6514 Y1.5641
X0.6653 Y1.5862
G3 X0.65 Y1.6042 I-0.0108 J0.0063
G1 X0.6474 Y1.6032 Z-0.0997
X0.645 Y1.6022 Z-0.0988
X0.6428 Y1.6014 Z-0.0973
X0.6409 Y1.6007 Z-0.0953
X0.6395 Y1.6001 Z-0.0929
X0.6387 Y1.5998 Z-0.0903
X0.6384 Y1.5997 Z-0.0875
G0 Z0.1969
X0.7006 Y0.3398
Z-0.075
G1 Z-0.0875 F60
Y0.3402 Z-0.0903
Y0.3411 Z-0.0929
X0.7005 Y0.3426 Z-0.0953
Y0.3445 Z-0.0973
X0.7004 Y0.3469 Z-0.0988
X0.7003 Y0.3496 Z-0.0997
X0.7002 Y0.3523 Z-0.1
G3 X0.6915 Y0.382 I-0.0623 J-0.0022
G1 X0.6907 Y0.3831
X0.6869 Y0.3897
X0.6857 Y0.3921
X0.6834 Y0.3974
X0.6827 Y0.3991
X0.6823 Y0.4002
X0.6802 Y0.4037
X0.6777 Y0.4068
X0.6746 Y0.4094
G3 X0.6583 Y0.3906 I-0.007 J-0.0104
G1 X0.6613 Y0.3874
G3 X0.6823 Y0.4002 I0.0093 J0.0084
G1 X0.6811 Y0.4029
X0.6802 Y0.4043
X0.6791 Y0.4058
X0.678 Y0.4069
X0.6768 Y0.4078
X0.6745 Y0.4095
X0.6725 Y0.411
X0.6667 Y0.4161
X0.6622 Y0.4199
X0.6574 Y0.4233
X0.6524 Y0.4264
X0.6467 Y0.4296
X0.6406 Y0.4325
X0.6326 Y0.436
X0.6215 Y0.4401
X0.5938 Y0.449
X0.5662 Y0.458
X0.5417 Y0.4736
X0.5221 Y0.495
X0.5079 Y0.5204
X0.4984 Y0.5478
X0.4924 Y0.5762
X0.4889 Y0.6051
X0.4869 Y0.6341
X0.4857 Y0.6631
X0.485 Y0.6921
X0.4847 Y0.7212
X0.4845 Y0.7502
X0.4844 Y0.7793
X0.4843 Y0.8374
Y1.0988
Y1.3602
Y1.3893
X0.4864 Y1.4182
X0.4964 Y1.4455
X0.5142 Y1.4684
X0.5376 Y1.4857
X0.5641 Y1.4976
X0.5919 Y1.5059
X0.6038 Y1.5093
X0.6068 Y1.5103
X0.6166 Y1.515
X0.625 Y1.5219
X0.6316 Y1.5305
X0.6474 Y1.5575
X0.649 Y1.5602
G0 Z0.1969
X0.6819 Y0.3841
Z-0.075
G1 Z-0.0875 F60
X0.6818 Y0.3844 Z-0.0903
X0.6815 Y0.3853 Z-0.0929
X0.6811 Y0.3867 Z-0.0953
X0.6806 Y0.3886 Z-0.0973
X0.6799 Y0.3909 Z-0.0988
X0.6792 Y0.3934 Z-0.0997
X0.6784 Y0.3961 Z-0.1
G3 X0.6667 Y0.4161 I-0.0449 J-0.0129
G1 X0.6659 Y0.4168
X0.6607 Y0.4227
X0.6593 Y0.4243
X0.6554 Y0.4293
X0.6546 Y0.4306
X0.6512 Y0.4354
X0.6473 Y0.4398
X0.6429 Y0.4438
X0.6383 Y0.4475
X0.633 Y0.4511
X0.6258 Y0.4556
X0.6004 Y0.4697
X0.5755 Y0.4847
X0.5545 Y0.5047
X0.5385 Y0.5289
X0.5273 Y0.5557
X0.5199 Y0.5838
X0.5154 Y0.6125
X0.5127 Y0.6414
X0.5112 Y0.6704
X0.5103 Y0.6995
X0.5098 Y0.7285
X0.5096 Y0.7576
X0.5095 Y0.7663
X0.5094 Y0.7698
X0.509 Y0.7733
X0.5083 Y0.7767
X0.5062 Y0.7856
X0.5023 Y0.8054
X0.4991 Y0.8252
X0.4982 Y0.8318
X0.4948 Y0.8581
X0.4932 Y0.8713
X0.4925 Y0.8779
X0.492 Y0.8845
X0.4918 Y0.8911
X0.4924 Y0.8977
X0.4935 Y0.9043
X0.4945 Y0.9091
X0.4963 Y0.9146
X0.4991 Y0.9248
X0.5012 Y0.9337
X0.5033 Y0.9459
X0.5055 Y0.9637
X0.5078 Y0.9926
X0.5086 Y1.0217
X0.509 Y1.0507
X0.5091 Y1.0798
X0.5092 Y1.1379
X0.5093 Y1.3412
X0.5094 Y1.3702
X0.5127 Y1.3991
X0.5244 Y1.4257
X0.5435 Y1.4476
X0.5675 Y1.464
X0.5902 Y1.4749
X0.5982 Y1.4798
X0.605 Y1.4862
X0.6104 Y1.4939
X0.6132 Y1.4988
X0.6243 Y1.5179
X0.6316 Y1.5305
G3 X0.6156 Y1.548 I-0.011 J0.006
G1 X0.6131 Y1.5468 Z-0.0997
X0.6107 Y1.5458 Z-0.0988
X0.6085 Y1.5448 Z-0.0973
X0.6067 Y1.5441 Z-0.0953
X0.6053 Y1.5435 Z-0.0929
X0.6045 Y1.5431 Z-0.0903
X0.6042 Y1.543 Z-0.0875
G0 Z0.1969
X0.4692 Y0.881
Z-0.075
G1 Z-0.0875 F60
X0.4695 Y0.8812 Z-0.0903
X0.4702 Y0.8818 Z-0.0929
X0.4713 Y0.8828 Z-0.0953
X0.4728 Y0.8841 Z-0.0973
X0.4746 Y0.8856 Z-0.0988
X0.4766 Y0.8873 Z-0.0997
X0.4787 Y0.8892 Z-0.1
G3 X0.4963 Y0.9146 I-0.0408 J0.0471
G1 X0.4973 Y0.9175
X0.5003 Y0.9241
X0.5011 Y0.9259
X0.5037 Y0.9307
X0.5077 Y0.9366
X0.5082 Y0.9373
X0.5118 Y0.942
X0.5146 Y0.9472
X0.517 Y0.9526
X0.5191 Y0.9581
X0.5212 Y0.9644
X0.5234 Y0.9726
X0.5257 Y0.983
X0.5281 Y0.9965
X0.5305 Y1.0162
X0.5326 Y1.0452
X0.5335 Y1.0742
X0.5339 Y1.1033
X0.5341 Y1.1323
X0.5342 Y1.1614
Y1.2485
X0.5343 Y1.3066
Y1.3357
X0.5357 Y1.3647
X0.5444 Y1.3924
X0.561 Y1.4162
X0.5706 Y1.4249
X0.5745 Y1.4289
X0.578 Y1.4334
X0.5808 Y1.4382
X0.5878 Y1.452
X0.5983 Y1.4718
X0.6 Y1.475
X0.6104 Y1.4939
G0 Z0.1969
X0.4707 Y0.916
Z-0.075
G1 Z-0.0875 F60
X0.471 Y0.9161 Z-0.0903
X0.4719 Y0.9164 Z-0.0929
X0.4733 Y0.9169 Z-0.0953
X0.4752 Y0.9175 Z-0.0973
X0.4774 Y0.9183 Z-0.0988
X0.4799 Y0.9192 Z-0.0997
X0.4825 Y0.9201 Z-0.1
G3 X0.5082 Y0.9373 I-0.0207 J0.0588
G1 X0.5137 Y0.9439
X0.5143 Y0.9445
X0.5209 Y0.9507
X0.522 Y0.9516
X0.5265 Y0.9554
X0.5302 Y0.96
X0.5334 Y0.965
X0.5362 Y0.9701
X0.5387 Y0.9755
X0.5411 Y0.9813
X0.5435 Y0.9881
X0.5463 Y0.9972
X0.5489 Y1.0077
X0.5514 Y1.0208
X0.554 Y1.0386
X0.5566 Y1.0655
X0.558 Y1.0945
X0.5587 Y1.1235
X0.559 Y1.1526
X0.5591 Y1.1816
X0.5592 Y1.2397
X0.5593 Y1.2978
X0.5597 Y1.3269
X0.562 Y1.3409
X0.5626 Y1.3462
X0.5625 Y1.3516
X0.5619 Y1.3569
X0.5614 Y1.3596
X0.5606 Y1.3662
X0.5604 Y1.3679
X0.5602 Y1.3728
X0.5605 Y1.3794
X0.5613 Y1.386
X0.5626 Y1.3926
X0.567 Y1.407
X0.5689 Y1.4124
X0.5778 Y1.4322
X0.5808 Y1.4382
G3 X0.5639 Y1.4546 I-0.0113 J0.0053
G1 X0.5614 Y1.4534 Z-0.0997
X0.559 Y1.4522 Z-0.0988
X0.5569 Y1.4511 Z-0.0973
X0.5551 Y1.4502 Z-0.0953
X0.5538 Y1.4496 Z-0.0929
X0.553 Y1.4492 Z-0.0903
X0.5527 Y1.449 Z-0.0875
G0 Z0.1969
X0.4807 Y0.9389
Z-0.075
G1 Z-0.0875 F60
X0.481 Y0.939 Z-0.0903
X0.4819 Y0.9391 Z-0.0929
X0.4834 Y0.9393 Z-0.0953
X0.4854 Y0.9395 Z-0.0973
X0.4877 Y0.9398 Z-0.0988
X0.4904 Y0.9401 Z-0.0997
X0.4931 Y0.9404 Z-0.1
G3 X0.522 Y0.9516 I-0.0074 J0.0619
G1 X0.5275 Y0.9558
X0.5293 Y0.9571
X0.5341 Y0.9598
X0.5352 Y0.9604
X0.5403 Y0.9633
X0.5447 Y0.9672
X0.5487 Y0.9716
X0.5522 Y0.9763
X0.5554 Y0.9813
X0.5583 Y0.9865
X0.5609 Y0.992
X0.5638 Y0.9988
X0.5665 Y1.006
X0.5695 Y1.0155
X0.5724 Y1.0267
X0.5752 Y1.0401
X0.578 Y1.0579
X0.5808 Y1.0833
X0.5826 Y1.1123
X0.5834 Y1.1413
X0.5838 Y1.1703
X0.5841 Y1.1994
X0.5842 Y1.2284
Y1.2575
X0.5843 Y1.2865
X0.5847 Y1.2949
X0.5841 Y1.3047
X0.5815 Y1.3142
X0.5769 Y1.3229
X0.5743 Y1.3266
X0.5702 Y1.3332
X0.567 Y1.34
X0.5646 Y1.3464
X0.5626 Y1.353
X0.5619 Y1.3569
G3 X0.5384 Y1.3596 I-0.0122 J-0.0027
G1 X0.5372 Y1.3571 Z-0.0997
X0.5361 Y1.3547 Z-0.0988
X0.535 Y1.3525 Z-0.0973
X0.5342 Y1.3508 Z-0.0953
X0.5335 Y1.3494 Z-0.0929
X0.5331 Y1.3486 Z-0.0903
X0.533 Y1.3483 Z-0.0875
G0 Z0.1969
X0.4923 Y0.9553
Z-0.075
G1 Z-0.0875 F60
X0.4926 Z-0.0903
X0.4935 Z-0.0929
X0.495 Y0.9552 Z-0.0953
X0.497 Y0.9551 Z-0.0973
X0.4994 Y0.9549 Z-0.0988
X0.502 Y0.9547 Z-0.0997
X0.5048 Y0.9546 Z-0.1
G3 X0.5351 Y0.9604 I0.0038 J0.0622
G1 X0.5406 Y0.9632
X0.5472 Y0.9658
X0.5483 Y0.9661
X0.5539 Y0.968
X0.5589 Y0.9712
X0.5635 Y0.9749
X0.5676 Y0.9792
X0.5713 Y0.9838
X0.5747 Y0.9886
X0.5778 Y0.9936
X0.5809 Y0.9992
X0.5838 Y1.0052
X0.587 Y1.0127
X0.59 Y1.0209
X0.5933 Y1.0311
X0.5965 Y1.0434
X0.5996 Y1.0581
X0.6026 Y1.077
X0.6056 Y1.1035
X0.6074 Y1.1325
X0.6083 Y1.1615
X0.6088 Y1.1906
X0.609 Y1.2196
X0.6091 Y1.2487
X0.6093 Y1.2681
X0.6091 Y1.2734
X0.6077 Y1.2829
X0.6042 Y1.292
X0.5989 Y1.3001
X0.5919 Y1.3068
X0.5868 Y1.3113
X0.5846 Y1.3134
X0.5802 Y1.3183
X0.5788 Y1.32
X0.5769 Y1.3229
G3 X0.5543 Y1.3159 I-0.0101 J-0.0074
G1 X0.5542 Y1.3132 Z-0.0997
X0.5541 Y1.3105 Z-0.0988
X0.554 Y1.3081 Z-0.0973
X0.5539 Y1.3062 Z-0.0953
Y1.3047 Z-0.0929
X0.5538 Y1.3038 Z-0.0903
Y1.3034 Z-0.0875
G0 Z0.1969
X0.5053 Y0.9696
Z-0.075
G1 Z-0.0875 F60
X0.5056 Y0.9695 Z-0.0903
X0.5065 Y0.9693 Z-0.0929
X0.508 Y0.9689 Z-0.0953
X0.5099 Y0.9684 Z-0.0973
X0.5122 Y0.9678 Z-0.0988
X0.5147 Y0.9671 Z-0.0997
X0.5174 Y0.9664 Z-0.1
G3 X0.5483 Y0.9661 I0.016 J0.0602
G1 X0.5538 Y0.9677
X0.5604 Y0.9691
X0.5615 Y0.9693
X0.5673 Y0.9703
X0.5727 Y0.9727
X0.5777 Y0.9759
X0.5823 Y0.9796
X0.5826 Y0.9799
X0.5882 Y0.9865
X0.5924 Y0.9939
X0.5952 Y1.002
G3 X0.574 Y1.0134 I-0.0123 J0.0025
G1 X0.5517 Y0.9908
X0.5515 Y0.9905
G3 X0.5615 Y0.9692 I0.0089 J-0.0088
G1 X0.567 Y0.97
X0.5722 Y0.9703
X0.5736 Y0.9704
X0.5754
X0.5769
X0.5786 Y0.9705
X0.5811 Y0.9712
G3 X0.5746 Y0.9872 I-0.0032 J0.008
X0.5743 Y0.9713 I0.0033 J-0.008
G1 X0.5764 Y0.9707
X0.5786 Y0.9705
X0.5802 Y0.9709
X0.5819 Y0.9715
X0.5835 Y0.9723
X0.5852 Y0.9736
X0.5868 Y0.9752
X0.5881 Y0.9769
X0.5889 Y0.9786
X0.5895 Y0.9802
X0.5922 Y0.9901
X0.5939 Y0.9967
X0.5987 Y1.0165
X0.6003 Y1.0231
X0.6021 Y1.0297
X0.604 Y1.0363
X0.6061 Y1.0429
X0.6109 Y1.0561
X0.6132 Y1.0621
X0.6135 Y1.0627
X0.6158 Y1.0681
X0.6181 Y1.0744
X0.6206 Y1.0824
X0.6232 Y1.0926
X0.6257 Y1.105
X0.6284 Y1.1222
X0.6311 Y1.1478
X0.6327 Y1.1768
X0.6335 Y1.2058
X0.6339 Y1.2348
X0.6337 Y1.2478
X0.6332 Y1.2548
X0.6324 Y1.2622
X0.6322 Y1.263
X0.6293 Y1.2732
X0.6241 Y1.2824
X0.617 Y1.2902
X0.6082 Y1.2962
X0.6066 Y1.297
X0.6 Y1.3011
X0.5934 Y1.3056
X0.5919 Y1.3068
G3 X0.5721 Y1.2957 I-0.0073 J-0.0102
G1 X0.5723 Y1.2931
X0.59 Y1.0676
G3 X0.6134 Y1.0627 I0.0124 J0.0009
G1 X0.6167 Y1.0693
X0.6208 Y1.0759
X0.6257 Y1.0825
X0.6278 Y1.085
X0.6314 Y1.0897
X0.6346 Y1.0947
X0.6374 Y1.0999
X0.6398 Y1.1053
X0.6421 Y1.1114
X0.6445 Y1.1183
X0.647 Y1.1273
X0.6496 Y1.1385
X0.6522 Y1.1528
X0.6548 Y1.1732
X0.6571 Y1.2014
X0.6577 Y1.2199
X0.6575 Y1.2303
X0.6569 Y1.2395
X0.6561 Y1.2461
X0.6552 Y1.252
X0.6538 Y1.2579
X0.6536 Y1.2586
X0.6492 Y1.2693
X0.6422 Y1.2785
X0.6332 Y1.2857
X0.6226 Y1.2904
X0.6198 Y1.2913
X0.6132 Y1.2936
X0.6082 Y1.2962
G3 X0.5903 Y1.2839 I-0.0054 J-0.0113
G1 X0.5907 Y1.2792
X0.6059 Y1.0941
X0.6061 Y1.0923
G3 X0.6278 Y1.0851 I0.0124 J0.0011
G1 X0.6313 Y1.0891
X0.6396 Y1.0967
X0.6415 Y1.0982
X0.6461 Y1.1019
X0.6502 Y1.1062
X0.6537 Y1.1109
X0.6569 Y1.1159
X0.6597 Y1.1211
X0.6623 Y1.1265
X0.665 Y1.1333
X0.6675 Y1.1404
X0.6704 Y1.1497
X0.6732 Y1.1612
X0.6758 Y1.1742
X0.6777 Y1.1875
X0.6789 Y1.1999
X0.6795 Y1.2113
Y1.2212
X0.6791 Y1.2287
X0.6785 Y1.235
X0.6775 Y1.242
X0.6763 Y1.2478
X0.6753 Y1.2519
X0.6716 Y1.2616
X0.6658 Y1.2702
X0.6583 Y1.2774
X0.6494 Y1.2827
X0.6396 Y1.2859
X0.634 Y1.287
X0.6226 Y1.2904
G3 X0.6069 Y1.2772 I-0.0032 J-0.0121
G1 X0.6076 Y1.2703
X0.6216 Y1.1123
X0.6221 Y1.1074
G3 X0.6415 Y1.0982 I0.0124 J0.0011
G1 X0.6461 Y1.1015
X0.6473 Y1.1023
X0.6527 Y1.1056
X0.6561 Y1.1072
X0.6613 Y1.11
X0.6659 Y1.1137
X0.67 Y1.118
X0.6738 Y1.1226
X0.6771 Y1.1274
X0.6801 Y1.1325
X0.6829 Y1.1378
X0.6857 Y1.1437
X0.6884 Y1.1505
X0.6911 Y1.1583
X0.6935 Y1.1664
X0.6957 Y1.1753
X0.6975 Y1.1846
X0.6988 Y1.1938
X0.6996 Y1.2027
X0.7 Y1.2113
Y1.219
X0.6997 Y1.2253
X0.6989 Y1.2322
X0.6981 Y1.2381
X0.6969 Y1.2439
X0.6953 Y1.2495
X0.6934 Y1.2551
X0.6932 Y1.2556
X0.6886 Y1.264
X0.6823 Y1.2713
X0.6746 Y1.2771
X0.6659 Y1.2812
X0.6565 Y1.2834
X0.6527 Y1.2838
X0.6396 Y1.2859
G3 X0.6257 Y1.2724 I-0.0015 J-0.0124
G1 X0.6263 Y1.2637
X0.638 Y1.1247
X0.6386 Y1.1176
G3 X0.6562 Y1.1071 I0.0125 J0.001
G1 X0.6595 Y1.1089
X0.6659 Y1.1111
X0.6696 Y1.1122
X0.6751 Y1.1141
X0.6802 Y1.1171
X0.6849 Y1.1207
X0.6891 Y1.1248
X0.693 Y1.1293
X0.6965 Y1.134
X0.6998 Y1.139
X0.7027 Y1.1441
X0.7054 Y1.1494
X0.708 Y1.1555
X0.7106 Y1.1619
X0.7128 Y1.1687
X0.7148 Y1.176
X0.7166 Y1.1835
X0.7179 Y1.1911
X0.7189 Y1.1987
X0.7194 Y1.2061
X0.7196 Y1.2132
X0.7195 Y1.2201
X0.7191 Y1.2267
X0.7184 Y1.2325
X0.7173 Y1.2383
X0.716 Y1.2441
X0.7143 Y1.2497
X0.7133 Y1.2525
X0.7085 Y1.2617
X0.7017 Y1.2697
X0.6933 Y1.2759
X0.6837 Y1.2801
X0.6734 Y1.2819
X0.6593 Y1.283
X0.6565 Y1.2834
G3 X0.6429 Y1.27 I-0.0011 J-0.0125
G1 X0.6437 Y1.2607
X0.6533 Y1.1325
X0.654 Y1.1234
G3 X0.6696 Y1.1121 I0.0125 J0.0009
G1 X0.6725 Y1.1131
X0.6791 Y1.1145
X0.6825 Y1.1148
X0.6883 Y1.1157
X0.6938 Y1.1179
X0.6989 Y1.1209
X0.7036 Y1.1245
X0.7079 Y1.1286
X0.7118 Y1.1329
X0.7155 Y1.1376
X0.7188 Y1.1425
X0.7218 Y1.1475
X0.7246 Y1.1528
X0.7271 Y1.1582
X0.7295 Y1.164
X0.7317 Y1.1702
X0.7337 Y1.1768
X0.7354 Y1.1835
X0.7367 Y1.1905
X0.7377 Y1.1974
X0.7384 Y1.2042
X0.7387 Y1.211
Y1.2175
X0.7384 Y1.2234
X0.7378 Y1.2293
X0.7369 Y1.2351
X0.7357 Y1.2409
X0.7341 Y1.2466
X0.7321 Y1.2522
X0.7315 Y1.2536
X0.7264 Y1.2626
X0.7192 Y1.2703
X0.7106 Y1.2761
X0.7008 Y1.2799
X0.6905 Y1.2813
X0.6791 Y1.2816
X0.6734 Y1.2819
G3 X0.6606 Y1.2687 I-0.0003 J-0.0125
G1 X0.6612 Y1.2586
X0.6686 Y1.1378
X0.6692 Y1.1265
G3 X0.6825 Y1.1148 I0.0125 J0.0008
G1 X0.6857 Y1.1151
X0.6923 Y1.1153
X0.6957 Y1.1152
X0.7016 Y1.1153
X0.7073 Y1.117
X0.7126 Y1.1195
X0.7176 Y1.1226
X0.7222 Y1.1263
X0.7266 Y1.1303
X0.7305 Y1.1347
X0.7342 Y1.1393
X0.7376 Y1.1441
X0.7407 Y1.1492
X0.7435 Y1.1544
X0.7461 Y1.1598
X0.7485 Y1.1655
X0.7506 Y1.1714
X0.7525 Y1.1776
X0.7542 Y1.1841
X0.7555 Y1.1906
X0.7565 Y1.1971
X0.7572 Y1.2036
X0.7575 Y1.21
X0.7576 Y1.2163
X0.7573 Y1.2224
X0.7568 Y1.2282
X0.7559 Y1.2341
X0.7547 Y1.2399
X0.7532 Y1.2456
X0.7512 Y1.2511
X0.7503 Y1.2533
X0.745 Y1.2625
X0.7377 Y1.2703
X0.7289 Y1.2761
X0.7189 Y1.2798
X0.7084 Y1.2811
X0.6989
X0.6905 Y1.2813
G3 X0.6781 Y1.2683 I0.0001 J-0.0125
G1 X0.6786 Y1.2574
X0.6835 Y1.1398
X0.684 Y1.1272
G3 X0.6957 Y1.1152 I0.0125 J0.0005
G1 X0.6989 Y1.1151
X0.7055 Y1.1142
X0.7066 Y1.114
X0.7124 Y1.1131
X0.7183 Y1.1138
X0.7239 Y1.1156
X0.7292 Y1.1181
X0.7343 Y1.1212
X0.739 Y1.1248
X0.7434 Y1.1287
X0.7475 Y1.133
X0.7513 Y1.1375
X0.7548 Y1.1423
X0.758 Y1.1472
X0.7609 Y1.1523
X0.7636 Y1.1576
X0.7661 Y1.163
X0.7683 Y1.1688
X0.7703 Y1.1748
X0.7721 Y1.1811
X0.7736 Y1.1875
X0.7747 Y1.1939
X0.7756 Y1.2004
X0.7761 Y1.2067
X0.7763 Y1.213
X0.7762 Y1.219
X0.7758 Y1.2249
X0.7751 Y1.2307
X0.7741 Y1.2365
X0.7728 Y1.2423
X0.7711 Y1.2479
X0.7689 Y1.2534
X0.7684 Y1.2545
X0.763 Y1.2634
X0.7557 Y1.2708
X0.747 Y1.2764
X0.7372 Y1.2798
X0.7269 Y1.281
X0.7084 Y1.2811
G3 X0.6963 Y1.2685 I0.0004 J-0.0125
G1 Y1.2569
X0.6971 Y1.1405
Y1.1261
G3 X0.7066 Y1.114 I0.0125 J0
G1 X0.7121 Y1.1128
X0.7187 Y1.1109
X0.7244 Y1.1093
X0.7302 Y1.1097
X0.736 Y1.111
X0.7415 Y1.1131
X0.7468 Y1.1158
X0.7517 Y1.119
X0.7564 Y1.1226
X0.7608 Y1.1265
X0.7649 Y1.1308
X0.7688 Y1.1352
X0.7723 Y1.14
X0.7756 Y1.1449
X0.7786 Y1.15
X0.7814 Y1.1552
X0.784 Y1.1607
X0.7863 Y1.1665
X0.7884 Y1.1725
X0.7903 Y1.1787
X0.7919 Y1.1851
X0.7932 Y1.1915
X0.7941 Y1.198
X0.7947 Y1.2043
X0.795 Y1.2107
Y1.2169
X0.7947 Y1.2228
X0.7941 Y1.2287
X0.7932 Y1.2345
X0.792 Y1.2403
X0.7904 Y1.246
X0.7884 Y1.2516
X0.7874 Y1.2538
X0.7821 Y1.2629
X0.7748 Y1.2705
X0.7659 Y1.2762
X0.756 Y1.2798
X0.7455 Y1.281
X0.7269
G3 X0.7148 Y1.2688 I0.0004 J-0.0125
G1 X0.7145 Y1.2568
X0.7115 Y1.1388
X0.7111 Y1.1227
G3 X0.7187 Y1.1109 I0.0125 J-0.0003
G1 X0.7253 Y1.1084
X0.7273 Y1.1074
X0.7326 Y1.1049
X0.7385 Y1.1042
X0.7444 Y1.1046
X0.7502 Y1.1059
X0.7557 Y1.1079
X0.7611 Y1.1104
X0.7661 Y1.1134
X0.7709 Y1.1168
X0.7755 Y1.1206
X0.7798 Y1.1247
X0.7838 Y1.129
X0.7876 Y1.1335
X0.7911 Y1.1383
X0.7943 Y1.1432
X0.7973 Y1.1484
X0.8002 Y1.1539
X0.8028 Y1.1596
X0.8052 Y1.1656
X0.8074 Y1.1718
X0.8093 Y1.1782
X0.8109 Y1.1848
X0.8121 Y1.1914
X0.8131 Y1.1979
X0.8136 Y1.2043
X0.8139 Y1.2106
Y1.2168
X0.8136 Y1.2229
X0.8129 Y1.2288
X0.812 Y1.2346
X0.8107 Y1.2404
X0.8091 Y1.2461
X0.8071 Y1.2516
X0.8061 Y1.2539
X0.8008 Y1.2629
X0.7935 Y1.2705
X0.7846 Y1.2762
X0.7747 Y1.2798
X0.7642 Y1.281
X0.7455
G3 X0.7335 Y1.2696 I0.0005 J-0.0125
G1 X0.7325 Y1.2568
X0.7223 Y1.1359
X0.7209 Y1.1193
G3 X0.7273 Y1.1074 I0.0124 J-0.001
G1 X0.7319 Y1.105
X0.7368 Y1.1023
X0.7377 Y1.1016
X0.7427 Y1.0985
X0.7485 Y1.0975
X0.7544
X0.7603 Y1.0983
X0.766 Y1.0998
X0.7715 Y1.102
X0.7768 Y1.1046
X0.7819 Y1.1076
X0.7867 Y1.111
X0.7913 Y1.1147
X0.7957 Y1.1187
X0.7998 Y1.1229
X0.8036 Y1.1274
X0.8072 Y1.1321
X0.8106 Y1.1369
X0.8138 Y1.1421
X0.8169 Y1.1476
X0.8198 Y1.1535
X0.8225 Y1.1596
X0.8249 Y1.1659
X0.8271 Y1.1724
X0.8289 Y1.1791
X0.8304 Y1.1859
X0.8315 Y1.1927
X0.8324 Y1.1994
X0.8328 Y1.2059
X0.833 Y1.2124
X0.8328 Y1.2185
X0.8324 Y1.2245
X0.8317 Y1.2303
X0.8306 Y1.2362
X0.8292 Y1.2419
X0.8275 Y1.2475
X0.8254 Y1.2531
X0.8229 Y1.2584
X0.82 Y1.2636
X0.8198 Y1.2639
X0.8139 Y1.2709
X0.8067 Y1.2766
X0.7986 Y1.2807
X0.7898 Y1.2832
X0.7896
X0.7879 Y1.2833
X0.7863 Y1.2832
X0.7846 Y1.2828
X0.778 Y1.2819
X0.7714 Y1.2812
X0.7642 Y1.281
G3 X0.7523 Y1.2701 I0.0005 J-0.0125
G1 X0.7506 Y1.2569
X0.7349 Y1.1308
X0.7327 Y1.1132
G3 X0.7377 Y1.1016 I0.0124 J-0.0015
G1 X0.7385 Y1.1011
X0.745 Y1.0961
X0.7456 Y1.0957
X0.7502 Y1.092
X0.7558 Y1.0901
X0.7616 Y1.0894
X0.7675 Y1.0895
X0.7734 Y1.0904
X0.7791 Y1.0918
X0.7847 Y1.0938
X0.79 Y1.0963
X0.7952 Y1.0992
X0.8001 Y1.1024
X0.8049 Y1.1059
X0.8094 Y1.1098
X0.8137 Y1.1138
X0.8177 Y1.1181
X0.8215 Y1.1226
X0.8253 Y1.1275
X0.8289 Y1.1327
X0.8323 Y1.1382
X0.8356 Y1.144
X0.8386 Y1.1501
X0.8414 Y1.1565
X0.8439 Y1.1631
X0.8461 Y1.17
X0.848 Y1.1769
X0.8495 Y1.1839
X0.8507 Y1.191
X0.8516 Y1.1979
X0.852 Y1.2046
X0.8522 Y1.2113
X0.852 Y1.2178
X0.8515 Y1.2239
X0.8508 Y1.2298
X0.8498 Y1.2356
X0.8485 Y1.2414
X0.8469 Y1.2471
X0.8449 Y1.2526
X0.8445 Y1.2535
X0.8394 Y1.2625
X0.8325 Y1.27
X0.8241 Y1.2759
X0.8145 Y1.2797
X0.8044 Y1.2813
X0.7978 Y1.2818
X0.7898 Y1.2832
G3 X0.7804 Y1.2766 I-0.0011 J-0.0084
G1 X0.7766 Y1.2587
X0.748 Y1.1254
X0.7433 Y1.1034
X0.7431 Y1.1013
X0.7435 Y1.0993
X0.7443 Y1.0973
X0.7456 Y1.0957
X0.7516 Y1.0901
X0.7526 Y1.0891
X0.7535 Y1.088
X0.7576 Y1.0837
X0.7631 Y1.0815
X0.7689 Y1.0803
X0.7748 Y1.0799
X0.7807 Y1.0802
X0.7865 Y1.0812
X0.7922 Y1.0826
X0.7978 Y1.0846
X0.8032 Y1.087
X0.8084 Y1.0897
X0.8134 Y1.0928
X0.8183 Y1.0962
X0.8229 Y1.0999
X0.8273 Y1.1038
X0.8315 Y1.1079
X0.8357 Y1.1124
X0.8398 Y1.1173
X0.8438 Y1.1226
X0.8475 Y1.1281
X0.8511 Y1.1339
X0.8545 Y1.1401
X0.8577 Y1.1467
X0.8606 Y1.1535
X0.8633 Y1.1605
X0.8655 Y1.1676
X0.8675 Y1.1749
X0.869 Y1.1823
X0.8702 Y1.1897
X0.8711 Y1.197
X0.8715 Y1.2042
X0.8716 Y1.2113
X0.8714 Y1.2181
X0.8709 Y1.2246
X0.8701 Y1.2304
X0.869 Y1.2362
X0.8676 Y1.242
X0.8659 Y1.2476
X0.8637 Y1.2531
X0.8631 Y1.2545
X0.8577 Y1.2633
X0.8504 Y1.2708
X0.8417 Y1.2763
X0.8319 Y1.2798
X0.8215 Y1.281
X0.811
X0.8044 Y1.2813
G3 X0.7921 Y1.2717 I-0.0001 J-0.0125
G1 X0.7889 Y1.258
X0.7556 Y1.1177
X0.7511 Y1.0988
G3 X0.7536 Y1.088 I0.0121 J-0.0029
G1 X0.7583 Y1.0825
X0.7598 Y1.0805
X0.7634 Y1.0758
X0.7685 Y1.0728
X0.7741 Y1.0709
X0.7799 Y1.0698
X0.7858 Y1.0695
X0.7917 Y1.0697
X0.7975 Y1.0706
X0.8033 Y1.0719
X0.8089 Y1.0737
X0.8144 Y1.0759
X0.8197 Y1.0785
X0.8249 Y1.0813
X0.8298 Y1.0845
X0.8346 Y1.0879
X0.8392 Y1.0916
X0.8438 Y1.0957
X0.8484 Y1.1001
X0.8527 Y1.1048
X0.8571 Y1.1099
X0.8613 Y1.1154
X0.8654 Y1.1214
X0.8693 Y1.1277
X0.873 Y1.1343
X0.8764 Y1.1412
X0.8795 Y1.1484
X0.8823 Y1.1558
X0.8848 Y1.1634
X0.8868 Y1.1711
X0.8885 Y1.1789
X0.8898 Y1.1867
X0.8908 Y1.1944
X0.8913 Y1.2017
X0.8914 Y1.2089
X0.8912 Y1.2159
X0.8907 Y1.2224
X0.89 Y1.2282
X0.8889 Y1.234
X0.8876 Y1.2398
X0.8859 Y1.2455
X0.8839 Y1.251
X0.8813 Y1.2566
X0.8758 Y1.2648
X0.8686 Y1.2716
X0.8601 Y1.2768
X0.8507 Y1.2799
X0.8408 Y1.281
X0.8215
G3 X0.81 Y1.2719 I0.0005 J-0.0125
G1 X0.8058 Y1.2573
X0.7637 Y1.1102
X0.7582 Y1.0908
G3 X0.7597 Y1.0805 I0.012 J-0.0035
G1 X0.763 Y1.0759
X0.7648 Y1.0731
X0.7656 Y1.072
X0.7689 Y1.0671
X0.7736 Y1.0635
X0.779 Y1.061
X0.7846 Y1.0593
X0.7904 Y1.0583
X0.7963 Y1.058
X0.8022 Y1.0583
X0.8081 Y1.059
X0.8139 Y1.0603
X0.8195 Y1.0619
X0.8251 Y1.0639
X0.8305 Y1.0663
X0.8358 Y1.0689
X0.8409 Y1.0719
X0.8458 Y1.0751
X0.8508 Y1.0787
X0.8557 Y1.0827
X0.8606 Y1.087
X0.8654 Y1.0917
X0.8702 Y1.0968
X0.8749 Y1.1023
X0.8795 Y1.1083
X0.8839 Y1.1147
X0.8881 Y1.1215
X0.892 Y1.1286
X0.8956 Y1.136
X0.8989 Y1.1436
X0.9019 Y1.1515
X0.9045 Y1.1595
X0.9066 Y1.1676
X0.9084 Y1.1758
X0.9098 Y1.1839
X0.9107 Y1.1918
X0.9112 Y1.1995
X0.9114 Y1.2069
X0.9111 Y1.2141
X0.9106 Y1.2209
X0.9098 Y1.2272
X0.9088 Y1.2331
X0.9074 Y1.2388
X0.9058 Y1.2445
X0.9038 Y1.25
X0.9014 Y1.2554
X0.9009 Y1.2564
X0.8953 Y1.2647
X0.8881 Y1.2716
X0.8796 Y1.2767
X0.8702 Y1.2799
X0.8603 Y1.281
X0.8408
G3 X0.8295 Y1.2725 I0.0005 J-0.0125
G1 X0.8243 Y1.2576
X0.7711 Y1.1014
X0.7645 Y1.0822
G3 X0.7655 Y1.0719 I0.0119 J-0.004
G1 X0.7672 Y1.0693
X0.7706 Y1.0627
X0.7735 Y1.0575
X0.7778 Y1.0535
X0.7829 Y1.0505
X0.7884 Y1.0483
X0.7941 Y1.0468
X0.7999 Y1.0459
X0.8058 Y1.0455
X0.8117 Y1.0457
X0.8176 Y1.0464
X0.8234 Y1.0474
X0.8291 Y1.0489
X0.8347 Y1.0507
X0.8402 Y1.0529
X0.8456 Y1.0553
X0.8508 Y1.0581
X0.8561 Y1.0611
X0.8614 Y1.0646
X0.8667 Y1.0684
X0.872 Y1.0727
X0.8772 Y1.0773
X0.8825 Y1.0825
X0.8877 Y1.0881
X0.8928 Y1.0941
X0.8978 Y1.1006
X0.9024 Y1.1074
X0.9069 Y1.1145
X0.911 Y1.122
X0.9149 Y1.1299
X0.9184 Y1.138
X0.9215 Y1.1464
X0.9243 Y1.1549
X0.9266 Y1.1635
X0.9284 Y1.1721
X0.9299 Y1.1806
X0.9308 Y1.189
X0.9314 Y1.1971
X0.9315 Y1.2049
X0.9313 Y1.2123
X0.9308 Y1.2194
X0.9299 Y1.226
X0.9289 Y1.2318
X0.9276 Y1.2376
X0.9259 Y1.2433
X0.924 Y1.2488
X0.9217 Y1.2543
X0.9207 Y1.256
X0.9152 Y1.2644
X0.908 Y1.2714
X0.8994 Y1.2766
X0.8899 Y1.2799
X0.8799 Y1.281
X0.8603
G3 X0.8491 Y1.2731 I0.0004 J-0.0125
G1 X0.8431 Y1.2578
X0.7779 Y1.0919
X0.7703 Y1.0725
X0.7696 Y1.0701
X0.7694 Y1.0676
X0.7697 Y1.0651
X0.7706 Y1.0627
X0.7714 Y1.061
X0.7737 Y1.0561
X0.7754 Y1.0525
X0.778 Y1.0472
X0.782 Y1.0428
X0.7868 Y1.0394
X0.7921 Y1.0367
X0.7976 Y1.0347
X0.8034 Y1.0333
X0.8092 Y1.0325
X0.8151 Y1.0322
X0.821 Y1.0323
X0.8269 Y1.0329
X0.8327 Y1.0339
X0.8385 Y1.0352
X0.8442 Y1.0369
X0.8497 Y1.0388
X0.8552 Y1.0411
X0.8607 Y1.0437
X0.8664 Y1.0467
X0.8721 Y1.0501
X0.8778 Y1.0539
X0.8835 Y1.0581
X0.8893 Y1.0629
X0.895 Y1.068
X0.9007 Y1.0737
X0.9063 Y1.0798
X0.9117 Y1.0864
X0.9169 Y1.0933
X0.9219 Y1.1006
X0.9266 Y1.1083
X0.931 Y1.1165
X0.935 Y1.1249
X0.9387 Y1.1336
X0.9419 Y1.1425
X0.9448 Y1.1516
X0.9471 Y1.1607
X0.949 Y1.1698
X0.9504 Y1.1788
X0.9514 Y1.1876
X0.9519 Y1.196
Y1.204
X0.9516 Y1.2116
X0.951 Y1.219
X0.95 Y1.2259
X0.949 Y1.2317
X0.9476 Y1.2374
X0.9459 Y1.2431
X0.9439 Y1.2486
X0.9416 Y1.2541
X0.9406 Y1.2561
X0.935 Y1.2645
X0.9278 Y1.2714
X0.9193 Y1.2767
X0.9098 Y1.2799
X0.8998 Y1.281
X0.8799
G3 X0.869 Y1.2736 I0.0005 J-0.0125
G1 X0.8621 Y1.2581
X0.784 Y1.0813
X0.7755 Y1.0622
X0.7747 Y1.0598
X0.7745 Y1.0573
X0.7747 Y1.0548
X0.7754 Y1.0525
X0.7767 Y1.0495
X0.7794 Y1.0429
X0.7802 Y1.0409
X0.7827 Y1.0355
X0.7865 Y1.031
X0.7911 Y1.0273
X0.7962 Y1.0243
X0.8016 Y1.022
X0.8073 Y1.0203
X0.813 Y1.0191
X0.8189 Y1.0184
X0.8248 Y1.0181
X0.8307 Y1.0183
X0.8366 Y1.0188
X0.8424 Y1.0197
X0.8482 Y1.021
X0.8539 Y1.0225
X0.8595 Y1.0243
X0.8652 Y1.0265
X0.8712 Y1.0291
X0.8773 Y1.0321
X0.8834 Y1.0356
X0.8896 Y1.0394
X0.8957 Y1.0437
X0.902 Y1.0485
X0.9082 Y1.0538
X0.9144 Y1.0596
X0.9205 Y1.0659
X0.9264 Y1.0727
X0.9321 Y1.0799
X0.9375 Y1.0875
X0.9427 Y1.0955
X0.9476 Y1.1039
X0.9522 Y1.1127
X0.9563 Y1.1219
X0.9601 Y1.1312
X0.9633 Y1.1408
X0.9661 Y1.1504
X0.9684 Y1.1601
X0.9702 Y1.1696
X0.9715 Y1.179
X0.9722 Y1.188
X0.9726 Y1.1967
X0.9725 Y1.2049
X0.972 Y1.2127
X0.9712 Y1.2202
X0.9701 Y1.2271
X0.9689 Y1.2329
X0.9674 Y1.2386
X0.9656 Y1.2442
X0.9636 Y1.2498
X0.9611 Y1.2552
X0.9603 Y1.2567
X0.9547 Y1.2649
X0.9475 Y1.2717
X0.939 Y1.2768
X0.9297 Y1.2799
X0.9198 Y1.281
X0.8998
G3 X0.889 Y1.274 I0.0004 J-0.0125
G1 X0.8814 Y1.2583
X0.7899 Y1.0694
X0.7807 Y1.0505
X0.7799 Y1.0482
X0.7795 Y1.0458
X0.7796 Y1.0433
X0.7802 Y1.0409
X0.782 Y1.0363
X0.785 Y1.0283
X0.7873 Y1.0228
X0.791 Y1.0182
X0.7955 Y1.0144
X0.8005 Y1.0112
X0.8058 Y1.0086
X0.8113 Y1.0066
X0.817 Y1.0051
X0.8229 Y1.0041
X0.8287 Y1.0035
X0.8346 Y1.0033
X0.8405 Y1.0035
X0.8464 Y1.0041
X0.8523 Y1.0049
X0.858 Y1.0061
X0.8639 Y1.0076
X0.8698 Y1.0094
X0.876 Y1.0116
X0.8824 Y1.0143
X0.889 Y1.0174
X0.8955 Y1.021
X0.9021 Y1.0249
X0.9088 Y1.0294
X0.9155 Y1.0344
X0.9223 Y1.0399
X0.929 Y1.046
X0.9355 Y1.0526
X0.942 Y1.0596
X0.9482 Y1.0671
X0.9541 Y1.0751
X0.9597 Y1.0835
X0.9651 Y1.0924
X0.9701 Y1.1016
X0.9746 Y1.1112
X0.9788 Y1.1211
X0.9825 Y1.1312
X0.9856 Y1.1414
X0.9882 Y1.1516
X0.9903 Y1.1618
X0.9918 Y1.1717
X0.9928 Y1.1813
X0.9934 Y1.1906
Y1.1994
X0.9931 Y1.2077
X0.9923 Y1.2157
X0.9913 Y1.2231
X0.99 Y1.2299
X0.9886 Y1.2357
X0.9869 Y1.2414
X0.985 Y1.247
X0.9827 Y1.2524
X0.9801 Y1.2577
X0.9798 Y1.2581
X0.9742 Y1.2659
X0.9671 Y1.2723
X0.9588 Y1.277
X0.9497 Y1.28
X0.9402 Y1.281
X0.9198
G3 X0.9092 Y1.2743 I0.0005 J-0.0125
G1 X0.901 Y1.2586
X0.7955 Y1.0565
X0.7858 Y1.038
X0.7849 Y1.0356
X0.7844 Y1.0332
Y1.0307
X0.785 Y1.0283
X0.7869 Y1.0231
X0.7892 Y1.0165
X0.7896 Y1.0155
X0.7916 Y1.0099
X0.7951 Y1.0052
X0.7994 Y1.0011
X0.8043 Y0.9977
X0.8095 Y0.9949
X0.8149 Y0.9926
X0.8205 Y0.9908
X0.8263 Y0.9895
X0.8321 Y0.9886
X0.838 Y0.9881
X0.8439 Y0.9879
X0.8498 Y0.9881
X0.8557 Y0.9886
X0.8616 Y0.9895
X0.8676 Y0.9906
X0.8738 Y0.9921
X0.8803 Y0.994
X0.887 Y0.9963
X0.8939 Y0.9991
X0.9009 Y1.0023
X0.9078 Y1.0059
X0.9149 Y1.0101
X0.9222 Y1.0148
X0.9295 Y1.0201
X0.9368 Y1.0259
X0.944 Y1.0323
X0.9511 Y1.0391
X0.9579 Y1.0465
X0.9645 Y1.0543
X0.9709 Y1.0627
X0.9771 Y1.0716
X0.9829 Y1.081
X0.9884 Y1.0908
X0.9934 Y1.101
X0.9979 Y1.1114
X1.0019 Y1.1221
X1.0054 Y1.1328
X1.0083 Y1.1436
X1.0107 Y1.1544
X1.0124 Y1.1649
X1.0136 Y1.1752
X1.0143 Y1.185
X1.0145 Y1.1945
X1.0142 Y1.2033
X1.0136 Y1.2117
X1.0126 Y1.2197
X1.0113 Y1.2269
X1.0098 Y1.2335
X1.0082 Y1.2392
X1.0063 Y1.2448
X1.0042 Y1.2503
X1.0016 Y1.2557
X1.0007 Y1.2574
X0.9951 Y1.2654
X0.9879 Y1.272
X0.9795 Y1.2769
X0.9703 Y1.28
X0.9606 Y1.281
X0.9402
G3 X0.9297 Y1.2746 I0.0004 J-0.0125
G1 X0.9209 Y1.2588
X0.801 Y1.0434
X0.7907 Y1.0248
X0.7897 Y1.0226
X0.7892 Y1.0203
Y1.0178
X0.7896 Y1.0155
X0.7937 Y1.0022
X0.7958 Y0.9967
X0.7991 Y0.9918
X0.8032 Y0.9875
X0.8079 Y0.9839
X0.8129 Y0.9809
X0.8182 Y0.9783
X0.8238 Y0.9762
X0.8294 Y0.9746
X0.8352 Y0.9734
X0.8411 Y0.9726
X0.8469 Y0.9721
X0.8529 Y0.972
X0.8588 Y0.9722
X0.8648 Y0.9727
X0.871 Y0.9735
X0.8774 Y0.9746
X0.8841 Y0.9762
X0.8911 Y0.9782
X0.8983 Y0.9806
X0.9056 Y0.9835
X0.913 Y0.9868
X0.9205 Y0.9906
X0.9282 Y0.995
X0.9361 Y1
X0.9439 Y1.0056
X0.9517 Y1.0118
X0.9594 Y1.0184
X0.9669 Y1.0256
X0.9742 Y1.0333
X0.9814 Y1.0417
X0.9883 Y1.0506
X0.995 Y1.06
X1.0012 Y1.07
X1.0071 Y1.0803
X1.0125 Y1.0911
X1.0174 Y1.1021
X1.0218 Y1.1134
X1.0256 Y1.1248
X1.0287 Y1.1362
X1.0313 Y1.1475
X1.0333 Y1.1587
X1.0347 Y1.1696
X1.0355 Y1.1801
X1.0358 Y1.1901
X1.0356 Y1.1996
X1.035 Y1.2084
X1.034 Y1.2167
X1.0327 Y1.2245
X1.0312 Y1.2314
X1.0296 Y1.2371
X1.0277 Y1.243
X1.0256 Y1.2485
X1.0232 Y1.2539
X1.0204 Y1.2591
X1.0131 Y1.2682
X1.0037 Y1.2752
X0.9929 Y1.2795
X0.9813 Y1.281
X0.9606
G3 X0.9502 Y1.2749 I0.0004 J-0.0125
G1 X0.9409 Y1.259
X0.8056 Y1.0299
X0.795 Y1.0119
X0.794 Y1.0096
X0.7934 Y1.0072
X0.7933 Y1.0047
X0.7937 Y1.0022
X0.7983 Y0.9874
X0.7987 Y0.9862
X0.7991 Y0.9847
X0.8011 Y0.9792
X0.8062 Y0.9746
X0.8124 Y0.9717
X0.8191 Y0.9707
G3 X0.8306 Y1.0056 I-0.0005 J0.0195
X0.7984 Y0.9899 I-0.0123 J-0.0157
G1 X0.7985
X0.7986 Y0.9873
X0.7991 Y0.9847
X0.8005 Y0.9802
X0.8011 Y0.9786
X0.802 Y0.9769
X0.803 Y0.9755
X0.8044 Y0.9741
X0.806 Y0.9728
X0.8077 Y0.9719
X0.8093 Y0.9713
X0.811 Y0.9709
X0.8176 Y0.9707
X0.8967 Y0.9702
X0.9026 Y0.9705
X0.9085 Y0.9712
X0.9142 Y0.9724
X0.92 Y0.9739
X0.9256 Y0.9758
X0.9314 Y0.978
X0.9373 Y0.9807
X0.9435 Y0.9839
X0.9503 Y0.9877
X0.9571 Y0.9921
X0.964 Y0.997
X0.9712 Y1.0026
X0.9786 Y1.009
X0.9861 Y1.0162
X0.9935 Y1.0239
X1.0006 Y1.0322
X1.0076 Y1.0411
X1.0144 Y1.0508
X1.0209 Y1.061
X1.027 Y1.0718
X1.0327 Y1.083
X1.0378 Y1.0946
X1.0424 Y1.1063
X1.0464 Y1.1183
X1.0498 Y1.1303
X1.0525 Y1.1422
X1.0546 Y1.154
X1.056 Y1.1655
X1.0569 Y1.1765
X1.0572 Y1.187
X1.057 Y1.1969
X1.0564 Y1.2061
X1.0554 Y1.2149
X1.054 Y1.2229
X1.0525 Y1.2302
X1.0508 Y1.2365
X1.049 Y1.2421
X1.0468 Y1.2476
X1.0444 Y1.253
X1.0417 Y1.2583
X1.0412 Y1.2592
X1.0339 Y1.2683
X1.0245 Y1.2752
X1.0137 Y1.2795
X1.0021 Y1.281
X0.9813
G3 X0.9698 Y1.272 I0.0005 J-0.0125
G1 X0.9654 Y1.2574
X0.8876 Y0.9941
X0.8852 Y0.9863
G3 X0.8967 Y0.9702 I0.012 J-0.0036
G1 X0.9297 Y0.97
X0.9356 Y0.9703
X0.9414 Y0.9709
X0.9472 Y0.9721
X0.9529 Y0.9738
X0.9584 Y0.9758
X0.9638 Y0.9782
X0.9693 Y0.981
X0.9749 Y0.9841
X0.9808 Y0.9879
X0.9872 Y0.9924
X0.9936 Y0.9973
X1.0001 Y1.003
X1.007 Y1.0095
X1.0141 Y1.0169
X1.021 Y1.0249
X1.0278 Y1.0334
X1.0345 Y1.0429
X1.041 Y1.0531
X1.0472 Y1.0639
X1.053 Y1.0753
X1.0583 Y1.0872
X1.0631 Y1.0993
X1.0673 Y1.1117
X1.0708 Y1.1241
X1.0737 Y1.1365
X1.0759 Y1.1488
X1.0775 Y1.1608
X1.0784 Y1.1724
X1.0788 Y1.1835
X1.0786 Y1.1939
X1.078 Y1.2036
X1.077 Y1.2126
X1.0757 Y1.2209
X1.074 Y1.2287
X1.0722 Y1.2354
X1.0704 Y1.241
X1.0683 Y1.2465
X1.066 Y1.2519
X1.0633 Y1.2572
X1.0624 Y1.2587
X1.0568 Y1.2662
X1.0497 Y1.2725
X1.0415 Y1.2772
X1.0325 Y1.28
X1.0231 Y1.281
X1.0021
G3 X0.9905 Y1.2716 I0.0005 J-0.0125
G1 X0.9868 Y1.2572
X0.9202 Y0.994
X0.9181 Y0.9856
G3 X0.9297 Y0.97 I0.0121 J-0.0031
G1 X0.9597 Y0.9698
X0.9656 Y0.9701
X0.9714 Y0.9708
X0.9772 Y0.9721
X0.9828 Y0.9739
X0.9883 Y0.9761
X0.9936 Y0.9786
X0.9988 Y0.9815
X1.004 Y0.9846
X1.0096 Y0.9884
X1.0156 Y0.993
X1.0215 Y0.9979
X1.0278 Y1.0037
X1.0344 Y1.0104
X1.041 Y1.0178
X1.0474 Y1.0258
X1.0539 Y1.0347
X1.0604 Y1.0445
X1.0667 Y1.0551
X1.0726 Y1.0664
X1.0781 Y1.0782
X1.0831 Y1.0904
X1.0875 Y1.1029
X1.0913 Y1.1156
X1.0945 Y1.1284
X1.097 Y1.1411
X1.0988 Y1.1535
X1.1 Y1.1656
X1.1005 Y1.1773
Y1.1884
X1.1 Y1.199
X1.099 Y1.2085
X1.0977 Y1.2171
X1.0961 Y1.2252
X1.0943 Y1.2327
X1.0926 Y1.2383
X1.0905 Y1.2442
X1.0882 Y1.2497
X1.0857 Y1.255
X1.0841 Y1.2578
X1.0784 Y1.2658
X1.0712 Y1.2723
X1.0627 Y1.2772
X1.0534 Y1.2802
X1.0437 Y1.2811
X1.0286 Y1.281
X1.0231
G3 X1.0113 Y1.2712 I0.0004 J-0.0125
G1 X1.0082 Y1.2571
X0.9499 Y0.9939
X0.948 Y0.985
G3 X0.9597 Y0.9698 I0.0122 J-0.0027
G1 X0.989 Y0.9696
X0.9949 Y0.9699
X1.0007 Y0.9708
X1.0064 Y0.9724
X1.012 Y0.9744
X1.0174 Y0.9768
X1.0226 Y0.9795
X1.0277 Y0.9826
X1.0328 Y0.986
X1.0382 Y0.9899
X1.044 Y0.9947
X1.0498 Y0.9999
X1.0557 Y1.0059
X1.0621 Y1.0128
X1.0685 Y1.0207
X1.0747 Y1.0289
X1.0809 Y1.0382
X1.0871 Y1.0484
X1.093 Y1.0594
X1.0986 Y1.071
X1.1037 Y1.0832
X1.1083 Y1.0958
X1.1123 Y1.1087
X1.1156 Y1.1217
X1.1183 Y1.1347
X1.1203 Y1.1475
X1.1216 Y1.1601
X1.1223 Y1.1723
X1.1224 Y1.1839
X1.1219 Y1.1949
X1.121 Y1.2049
X1.1198 Y1.2141
X1.1182 Y1.2226
X1.1163 Y1.2304
X1.1146 Y1.2364
X1.1124 Y1.2426
X1.1102 Y1.2481
X1.1077 Y1.2535
X1.1049 Y1.2586
X1.1044 Y1.2595
X1.0971 Y1.2685
X1.0877 Y1.2754
X1.077 Y1.2797
X1.0654 Y1.2812
X1.0483
X1.0437 Y1.2811
G3 X1.0321 Y1.271 I0.0006 J-0.0124
G1 X1.0293 Y1.2571
X0.979 Y0.9938
X0.9772 Y0.9845
G3 X0.989 Y0.9696 I0.0123 J-0.0024
G1 X1.0154 Y0.9695
X1.0213 Y0.9697
X1.0271 Y0.9707
X1.0328 Y0.9722
X1.0383 Y0.9743
X1.0437 Y0.9768
X1.0489 Y0.9796
X1.0539 Y0.9827
X1.0588 Y0.9861
X1.0642 Y0.9903
X1.0695 Y0.9948
X1.0751 Y1.0001
X1.0811 Y1.0063
X1.0871 Y1.0131
X1.0931 Y1.0206
X1.0992 Y1.0291
X1.1053 Y1.0386
X1.1114 Y1.049
X1.1169 Y1.0598
X1.1222 Y1.0713
X1.1271 Y1.0836
X1.1315 Y1.0964
X1.1353 Y1.1095
X1.1384 Y1.1228
X1.1409 Y1.1361
X1.1427 Y1.1493
X1.1439 Y1.1622
X1.1443 Y1.1745
X1.1442 Y1.186
X1.1436 Y1.1969
X1.1425 Y1.2069
X1.141 Y1.2163
X1.1393 Y1.2248
X1.1373 Y1.2324
X1.1354 Y1.2383
X1.1334 Y1.2439
X1.1309 Y1.2497
X1.1283 Y1.2551
X1.1254 Y1.2602
X1.1253 Y1.2605
X1.1181 Y1.2689
X1.109 Y1.2753
X1.0987 Y1.2794
X1.0878 Y1.281
X1.0747 Y1.2812
X1.0654
G3 X1.0536 Y1.2708 I0.0005 J-0.0125
G1 X1.0512 Y1.2572
X1.0052 Y0.9936
X1.0036 Y0.9841
G3 X1.0154 Y0.9695 I0.0123 J-0.0021
G1 X1.0404 Y0.9693
X1.0463 Y0.9696
X1.0522 Y0.9705
X1.0579 Y0.972
X1.0634 Y0.9741
X1.0687 Y0.9766
X1.0739 Y0.9794
X1.0789 Y0.9826
X1.0837 Y0.986
X1.0889 Y0.9901
X1.0941 Y0.9946
X1.0996 Y0.9998
X1.1054 Y1.006
X1.1111 Y1.0126
X1.1169 Y1.0201
X1.1229 Y1.0286
X1.1289 Y1.038
X1.1345 Y1.0481
X1.1399 Y1.0588
X1.1451 Y1.0704
X1.1499 Y1.0827
X1.1541 Y1.0956
X1.1579 Y1.109
X1.1609 Y1.1225
X1.1633 Y1.136
X1.165 Y1.1493
X1.166 Y1.1624
X1.1663 Y1.1749
X1.1661 Y1.1868
X1.1654 Y1.1977
X1.1642 Y1.2078
X1.1626 Y1.217
X1.1607 Y1.2256
X1.1586 Y1.2334
X1.1567 Y1.2395
X1.1546 Y1.245
X1.1521 Y1.2506
X1.1494 Y1.2559
X1.1483 Y1.2579
X1.1427 Y1.2656
X1.1356 Y1.2719
X1.1275 Y1.2767
X1.1185 Y1.2797
X1.109 Y1.2807
X1.0945 Y1.2809
X1.0878 Y1.281
G3 X1.0757 Y1.2705 I0.0002 J-0.0125
G1 X1.0735 Y1.2571
X1.0302 Y0.9935
X1.0286 Y0.9838
G3 X1.0404 Y0.9693 I0.0123 J-0.002
G1 X1.0652 Y0.9692
X1.0711 Y0.9694
X1.0769 Y0.9703
X1.0826 Y0.9719
X1.0881 Y0.974
X1.0935 Y0.9765
X1.0986 Y0.9794
X1.1036 Y0.9826
X1.1084 Y0.986
X1.1134 Y0.9901
X1.1185 Y0.9946
X1.1238 Y0.9998
X1.1295 Y1.0059
X1.1351 Y1.0125
X1.1407 Y1.0199
X1.1464 Y1.0283
X1.1522 Y1.0377
X1.1578 Y1.0477
X1.163 Y1.0584
X1.1681 Y1.07
X1.1727 Y1.0824
X1.1769 Y1.0955
X1.1805 Y1.1089
X1.1834 Y1.1225
X1.1857 Y1.1362
X1.1873 Y1.1498
X1.1882 Y1.1629
X1.1884 Y1.1756
X1.188 Y1.1876
X1.1872 Y1.1986
X1.1858 Y1.2088
X1.1842 Y1.218
X1.1822 Y1.2266
X1.1802 Y1.2338
X1.1783 Y1.2396
X1.1759 Y1.2458
X1.1735 Y1.2512
X1.1707 Y1.2564
X1.1696 Y1.2582
X1.1624 Y1.2674
X1.1531 Y1.2745
X1.1423 Y1.279
X1.1307 Y1.2805
X1.109 Y1.2807
G3 X1.097 Y1.2701 I0.0004 J-0.0125
G1 X1.095 Y1.2568
X1.0548 Y0.9933
X1.0533 Y0.9835
G3 X1.0652 Y0.9691 I0.0124 J-0.0019
G1 X1.0899 Y0.969
X1.0958 Y0.9693
X1.1016 Y0.9702
X1.1073 Y0.9718
X1.1128 Y0.974
X1.1181 Y0.9766
X1.1232 Y0.9795
X1.1282 Y0.9828
X1.1329 Y0.9863
X1.1379 Y0.9904
X1.1429 Y0.995
X1.1481 Y1.0001
X1.1536 Y1.0062
X1.1592 Y1.013
X1.1646 Y1.0203
X1.1702 Y1.0286
X1.1759 Y1.038
X1.1813 Y1.0483
X1.1864 Y1.0589
X1.1913 Y1.0706
X1.1958 Y1.0831
X1.1998 Y1.0962
X1.2033 Y1.1097
X1.2061 Y1.1235
X1.2082 Y1.1373
X1.2096 Y1.151
X1.2104 Y1.1643
X1.2105 Y1.1771
X1.2099 Y1.1891
X1.2089 Y1.2
X1.2075 Y1.21
X1.2057 Y1.2195
X1.2037 Y1.2278
X1.2017 Y1.2348
X1.1997 Y1.2404
X1.1972 Y1.2465
X1.1947 Y1.2519
X1.192 Y1.2571
X1.1909 Y1.2588
X1.1837 Y1.2677
X1.1744 Y1.2745
X1.1638 Y1.2788
X1.1524 Y1.2804
X1.1307 Y1.2805
G3 X1.1186 Y1.2698 I0.0003 J-0.0125
G1 X1.1168 Y1.2566
X1.0795 Y0.9932
X1.078 Y0.9832
G3 X1.0899 Y0.969 I0.0124 J-0.0017
G1 X1.1143 Y0.9688
X1.1202 Y0.9691
X1.126 Y0.9701
X1.1317 Y0.9718
X1.1371 Y0.974
X1.1424 Y0.9766
X1.1475 Y0.9796
X1.1524 Y0.9829
X1.1571 Y0.9865
X1.162 Y0.9906
X1.167 Y0.9952
X1.1721 Y1.0004
X1.1775 Y1.0066
X1.183 Y1.0133
X1.1883 Y1.0207
X1.1938 Y1.0291
X1.1994 Y1.0385
X1.2047 Y1.0487
X1.2097 Y1.0594
X1.2144 Y1.0712
X1.2188 Y1.0837
X1.2227 Y1.0969
X1.226 Y1.1106
X1.2287 Y1.1245
X1.2307 Y1.1384
X1.232 Y1.1521
X1.2326 Y1.1655
X1.2325 Y1.1782
X1.2319 Y1.1903
X1.2308 Y1.2012
X1.2293 Y1.2111
X1.2274 Y1.2204
X1.2253 Y1.2289
X1.2232 Y1.2357
X1.2212 Y1.2413
X1.2186 Y1.2473
X1.2161 Y1.2526
X1.2133 Y1.2578
X1.2125 Y1.2591
X1.2052 Y1.2678
X1.196 Y1.2745
X1.1855 Y1.2787
X1.1743 Y1.2802
X1.1524 Y1.2804
G3 X1.1404 Y1.2695 I0.0004 J-0.0125
G1 X1.1386 Y1.2564
X1.1037 Y0.993
X1.1024 Y0.983
G3 X1.1143 Y0.9688 I0.0124 J-0.0017
G1 X1.1377 Y0.9687
X1.1436 Y0.9689
X1.1494 Y0.9699
X1.1551 Y0.9716
X1.1606 Y0.9738
X1.1658 Y0.9764
X1.1709 Y0.9794
X1.1758 Y0.9827
X1.1805 Y0.9863
X1.1854 Y0.9904
X1.1902 Y0.9949
X1.1953 Y1.0001
X1.2007 Y1.0063
X1.2059 Y1.0128
X1.2112 Y1.0202
X1.2167 Y1.0285
X1.2221 Y1.0379
X1.2272 Y1.0478
X1.2322 Y1.0585
X1.2369 Y1.0703
X1.2413 Y1.0829
X1.2451 Y1.0962
X1.2484 Y1.1098
X1.251 Y1.1238
X1.253 Y1.1377
X1.2542 Y1.1515
X1.2548 Y1.1649
X1.2547 Y1.1777
X1.254 Y1.1899
X1.2528 Y1.2012
X1.2513 Y1.211
X1.2494 Y1.2202
X1.2472 Y1.2287
X1.245 Y1.2359
X1.243 Y1.2414
X1.2405 Y1.2473
X1.2379 Y1.2526
X1.2351 Y1.2578
X1.2343 Y1.259
X1.227 Y1.2677
X1.2178 Y1.2743
X1.2073 Y1.2785
X1.1961 Y1.28
X1.1743 Y1.2802
G3 X1.1622 Y1.2693 I0.0003 J-0.0125
G1 X1.1605 Y1.2562
X1.1271 Y0.9929
X1.1258 Y0.9828
G3 X1.1377 Y0.9687 I0.0124 J-0.0016
G1 X1.1615 Y0.9685
X1.1674 Y0.9687
X1.1732 Y0.9698
X1.1789 Y0.9715
X1.1844 Y0.9737
X1.1896 Y0.9764
X1.1947 Y0.9795
X1.1995 Y0.9828
X1.2042 Y0.9864
X1.209 Y0.9906
X1.2139 Y0.9952
X1.2189 Y1.0004
X1.2241 Y1.0065
X1.2294 Y1.0132
X1.2346 Y1.0205
X1.2399 Y1.0289
X1.2453 Y1.0383
X1.2505 Y1.0485
X1.2553 Y1.0592
X1.2599 Y1.071
X1.2641 Y1.0836
X1.2679 Y1.0969
X1.2711 Y1.1106
X1.2736 Y1.1246
X1.2754 Y1.1386
X1.2765 Y1.1524
X1.277 Y1.1659
X1.2768 Y1.1788
X1.276 Y1.191
X1.2747 Y1.2021
X1.2731 Y1.212
X1.2711 Y1.2212
X1.2688 Y1.2297
X1.2667 Y1.2365
X1.2646 Y1.242
X1.262 Y1.248
X1.2594 Y1.2533
X1.2565 Y1.2584
X1.2559 Y1.2594
X1.2486 Y1.2679
X1.2394 Y1.2744
X1.2289 Y1.2785
X1.2178 Y1.2799
X1.1961 Y1.28
G3 X1.184 Y1.269 I0.0003 J-0.0125
G1 X1.1825 Y1.256
X1.1509 Y0.9927
X1.1497 Y0.9825
G3 X1.1615 Y0.9685 I0.0124 J-0.0015
G1 X1.1838 Y0.9683
X1.1897 Y0.9685
X1.1956 Y0.9694
X1.2013 Y0.971
X1.2067 Y0.9732
X1.212 Y0.9758
X1.2171 Y0.9788
X1.222 Y0.9822
X1.2267 Y0.9858
X1.2315 Y0.9898
X1.2361 Y0.9942
X1.2411 Y0.9994
X1.2464 Y1.0054
X1.2514 Y1.0118
X1.2566 Y1.0191
X1.262 Y1.0274
X1.2672 Y1.0366
X1.2722 Y1.0462
X1.2771 Y1.057
X1.2818 Y1.0687
X1.286 Y1.0813
X1.2898 Y1.0946
X1.2931 Y1.1082
X1.2956 Y1.1222
X1.2975 Y1.1362
X1.2987 Y1.1501
X1.2992 Y1.1636
X1.299 Y1.1765
X1.2983 Y1.1888
X1.297 Y1.2004
X1.2954 Y1.2106
X1.2934 Y1.2198
X1.2912 Y1.2283
X1.2889 Y1.2358
X1.2868 Y1.2414
X1.2844 Y1.247
X1.2818 Y1.2523
X1.279 Y1.2575
X1.278 Y1.2589
X1.2707 Y1.2677
X1.2614 Y1.2744
X1.2507 Y1.2786
X1.2393 Y1.28
X1.2264 Y1.2799
X1.2178
G3 X1.2058 Y1.2689 I0.0004 J-0.0125
G1 X1.2042 Y1.2558
X1.1732 Y0.9925
X1.172 Y0.9822
G3 X1.1838 Y0.9683 I0.0124 J-0.0014
G1 X1.2077 Y0.968
X1.2136 Y0.9683
X1.2194 Y0.9693
X1.2251 Y0.971
X1.2305 Y0.9733
X1.2358 Y0.976
X1.2408 Y0.979
X1.2457 Y0.9824
X1.2503 Y0.9861
X1.255 Y0.9901
X1.2599 Y0.9948
X1.2647 Y1
X1.2698 Y1.0059
X1.2751 Y1.0127
X1.2801 Y1.0199
X1.2853 Y1.0282
X1.2906 Y1.0375
X1.2957 Y1.0478
X1.3004 Y1.0584
X1.3049 Y1.0701
X1.309 Y1.0827
X1.3127 Y1.096
X1.3158 Y1.1097
X1.3182 Y1.1237
X1.32 Y1.1378
X1.321 Y1.1517
X1.3214 Y1.1653
X1.3211 Y1.1784
X1.3202 Y1.1907
X1.3189 Y1.2019
X1.3172 Y1.2119
X1.3151 Y1.2212
X1.3128 Y1.2297
X1.3106 Y1.2366
X1.3085 Y1.2421
X1.3058 Y1.2481
X1.3032 Y1.2534
X1.3003 Y1.2586
X1.2994 Y1.2599
X1.2919 Y1.2685
X1.2825 Y1.275
X1.2718 Y1.279
X1.2604 Y1.2802
X1.2462 Y1.28
X1.2393
G3 X1.2274 Y1.2688 I0.0005 J-0.0125
G1 X1.2259 Y1.2558
X1.197 Y0.9923
X1.1958 Y0.9819
G3 X1.2077 Y0.9679 I0.0125 J-0.0014
G1 X1.23 Y0.9678
X1.2359 Y0.968
X1.2417 Y0.9689
X1.2474 Y0.9706
X1.2529 Y0.9728
X1.2581 Y0.9755
X1.2632 Y0.9785
X1.2681 Y0.9819
X1.2727 Y0.9855
X1.2774 Y0.9896
X1.2821 Y0.994
X1.287 Y0.9992
X1.2921 Y1.0052
X1.2971 Y1.0116
X1.3023 Y1.0189
X1.3075 Y1.0272
X1.3127 Y1.0364
X1.3176 Y1.046
X1.3224 Y1.0567
X1.3269 Y1.0685
X1.3311 Y1.081
X1.3348 Y1.0943
X1.3379 Y1.108
X1.3404 Y1.122
X1.3422 Y1.1361
X1.3433 Y1.1501
X1.3437 Y1.1637
X1.3434 Y1.1767
X1.3425 Y1.1891
X1.3412 Y1.2008
X1.3395 Y1.211
X1.3374 Y1.2202
X1.3351 Y1.2288
X1.3327 Y1.2363
X1.3306 Y1.2418
X1.3282 Y1.2475
X1.3255 Y1.2528
X1.3226 Y1.258
X1.3211 Y1.2603
X1.315 Y1.2679
X1.3074 Y1.2739
X1.2988 Y1.2783
X1.2894 Y1.2807
X1.2797 Y1.2811
X1.2694 Y1.2804
X1.2604 Y1.2802
G3 X1.2487 Y1.2691 I0.0007 J-0.0124
G1 X1.2473 Y1.2559
X1.2193 Y0.9921
X1.2182 Y0.9816
G3 X1.23 Y0.9678 I0.0124 J-0.0013
G1 X1.2527 Y0.9675
X1.2586 Y0.9677
X1.2645 Y0.9687
X1.2702 Y0.9703
X1.2756 Y0.9725
X1.2809 Y0.9752
X1.2859 Y0.9782
X1.2908 Y0.9816
X1.2955 Y0.9852
X1.3001 Y0.9893
X1.3048 Y0.9938
X1.3096 Y0.9989
X1.3147 Y1.0048
X1.3198 Y1.0114
X1.3248 Y1.0185
X1.33 Y1.0267
X1.3352 Y1.036
X1.3401 Y1.0457
X1.3448 Y1.0563
X1.3493 Y1.068
X1.3535 Y1.0805
X1.3571 Y1.0938
X1.3602 Y1.1075
X1.3627 Y1.1215
X1.3644 Y1.1356
X1.3655 Y1.1496
X1.3659 Y1.1633
X1.3656 Y1.1764
X1.3647 Y1.1889
X1.3633 Y1.2006
X1.3625 Y1.2058
X1.3607 Y1.2128
X1.3578 Y1.2195
X1.354 Y1.2256
X1.3451 Y1.2375
X1.3375 Y1.2474
X1.3168 Y1.2738
X1.313 Y1.2784
X1.3121 Y1.2796
X1.3111 Y1.2804
X1.3097 Y1.2813
X1.3083 Y1.282
X1.3069 Y1.2825
X1.3055 Y1.2828
X1.3038 Y1.2829
X1.3022 Y1.2828
X1.2989 Y1.2825
X1.2923 Y1.2819
X1.2797 Y1.2811
G3 X1.2686 Y1.2698 I0.0013 J-0.0124
G1 X1.2672 Y1.2562
X1.2419 Y0.9918
X1.2409 Y0.9812
G3 X1.2527 Y0.9676 I0.0124 J-0.0012
G1 X1.2762 Y0.9672
X1.2821 Y0.9675
X1.2879 Y0.9685
X1.2935 Y0.9702
X1.299 Y0.9725
X1.3042 Y0.9752
X1.3092 Y0.9783
X1.3141 Y0.9817
X1.3187 Y0.9854
X1.3233 Y0.9895
X1.3281 Y0.9941
